!!!COM: L van Beethoven
!!!OTL: String Quartet No15 Op 132
**kern	**dynam	**kern	**dynam	**kern	**dynam	**kern	**dynam	**mxhm
*part4	*part4	*part3	*part3	*part2	*part2	*part1	*part1	*part1
*staff4	*	*staff3	*	*staff2	*	*staff1	*	*
*I"Violoncello	*	*I"Viola	*	*I"Violin II	*	*I"Violin I	*	*
*I'Vc.	*	*I'Vla.	*	*I'Vln. II	*	*I'Vln. I	*	*
*clefF4	*	*clefC3	*	*clefG2	*	*clefG2	*	*
*k[]	*	*k[]	*	*k[]	*	*k[]	*	*
*M2/2	*	*M2/2	*	*M2/2	*	*M2/2	*	*
*met(c|)	*	*met(c|)	*	*met(c|)	*	*met(c|)	*	*
=1	=1	=1	=1	=1	=1	=1	=1	=1
!	!	!	!	!	!	!LO:TX:a:B:t=Assai sostenuto	!	!
(2GG#X	pp	1r	.	1r	.	2r	.	.a.#viio
2AA	.	.	.	.	.	2r	.	i
=2	=2	=2	=2	=2	=2	=2	=2	=2
2F	.	(2A	pp	2r	.	1r	.	V
2E)	.	2G#X)	.	(2B	pp	.	.	.
=3	=3	=3	=3	=3	=3	=3	=3	=3
!	!	!	!	!	!LO:DY:a	!	!	!
1r	.	(2c	.	2A	pp	(2d#X	.	#viio43/V
.	.	2B	.	2G#X)	.	2e	.	V6
=4	=4	=4	=4	=4	=4	=4	=4	=4
1r	.	2D#X	<	(2A 2f#X	<	2cc	<	#viio7/V
.	.	2E)	>]	2g#X)	>]	2b)	>]	V
=5	=5	=5	=5	=5	=5	=5	=5	=5
(2F	pp	(2b	] pp	(2d	] pp	(2gg#X	] pp	#viio2
2E	.	2cc)	.	2c	.	2aa	.	i64
=6	=6	=6	=6	=6	=6	=6	=6	=6
2GG#X	.	(2d	.	2fn	.	2bb	.	#viio7
2AA)	.	2c)	.	2e) 2cc	.	2ccc)	.	i
=7	=7	=7	=7	=7	=7	=7	=7	=7
(2DD#X	<	(2F#X	<	(2a	<	(2ccc	<	#viio7/V
2EE	[ > ]]	2G#X)	[ > ]]	2g#X)	[ > ]]	2bb)	[ > ]]	V
=8	=8	=8	=8	=8	=8	=8	=8	=8
2C)	pp	(2A	pp	(4f	pp	(2dd#X	pp	.Ger43
.	.	.	.	4f#X	.	.	.	.
!LO:TX:b:i:t=cresc.	!	!LO:TX:b:i:t=cresc.	!	!LO:TX:b:i:t=cresc.	!	!LO:TX:b:i:t=cresc.	!	!
4BB	.	4G#X)	.	4g#X	.	4ee	.	V64
4BB	.	4G# 4B	.	4d) 4dd	.	4ff)	.	#viio65
=9||	=9||	=9||	=9||	=9||	=9||	=9||	=9||	=9||
*M4/4	*	*M4/4	*	*M4/4	*	*M4/4	*	*
*met(c)	*	*met(c)	*	*met(c)	*	*met(c)	*	*
!	!	!	!	!	!	!LO:TX:a:B:t=Allegro	!	!
*MM120	*	*MM120	*	*MM120	*	*MM120	*	*
!	!	!	!	!	!	!LO:TX:a:t=[quarter]=120	!	!
4BB'	f	4G#X' 4B	f	4d' 4dd	f	(16ffLL	f	#viio65
.	.	.	.	.	.	16ee	.	.
.	.	.	.	.	.	16ddn	.	.
.	.	.	.	.	.	16ffJJ	.	.
4r	.	4r	.	4r	.	16ddLL	.	.
.	.	.	.	.	.	16cc	.	.
.	.	.	.	.	.	16b	.	.
.	.	.	.	.	.	16ddJJ	.	.
2r	.	2r	.	2r	.	16bLL	.	.
.	.	.	.	.	.	16a	.	.
.	.	.	.	.	.	16g#X	.	.
.	.	.	.	.	.	16bJJ	.	.
.	.	.	.	.	.	16fLL	.	.
.	.	.	.	.	.	16e	.	.
.	.	.	.	.	.	16d	.	.
.	.	.	.	.	.	16fJJ	.	.
=10	=10	=10	=10	=10	=10	=10	=10	=10
!	!	!	!	!	!	!LO:TX:a:i:t=dim.	!	!
2r	.	2r	.	2r	.	16dLL	.	.
.	.	.	.	.	.	16c	.	.
.	.	.	.	.	.	16B	.	.
.	.	.	.	.	.	16dJJ	.	.
.	.	.	.	.	.	16BLL	.	.
.	.	.	.	.	.	16A	.	.
.	.	.	.	.	.	16G#X	.	.
.	.	.	.	.	.	16BJJ	.	.
4r	.	4r	.	4r	.	16dLL	.	.
.	.	.	.	.	.	16g#X	.	.
.	.	.	.	.	.	16b	.	.
.	.	.	.	.	.	16ddJJ	.	.
4C'	p	4E'	p	4e' 4a	p	8ffL	p	i6(6)
.	.	.	.	.	.	8eeJ)	.	i6
=11	=11	=11	=11	=11	=11	=11	=11	=11
4r	.	1r	.	1r	.	[1ee	.	i
*clefG2	*	*	*	*	*	*	*	*
(8.aaL	.	.	.	.	.	.	.	.
16bbJk	.	.	.	.	.	.	.	.
4ccc	.	.	.	.	.	.	.	.
8.bbL	.	.	.	.	.	.	.	.
16aaJk)	.	.	.	.	.	.	.	.
=12	=12	=12	=12	=12	=12	=12	=12	=12
(4aa	.	2r	.	2r	.	2ee_	.	V
2.gg#X)	.	.	.	.	.	.	.	.
.	.	4r	.	4r	.	(8eeL]	.	.
.	.	.	.	.	.	8dd#XJ)	.	.
!	!	!	!LO:DY:a	!	!	!	!	!
.	.	(4E	p p	(4G#X	.	(12ddnL	.	V7
.	.	.	.	.	.	12cc	.	.
.	.	.	.	.	.	12bJ)	.	.
=13	=13	=13	=13	=13	=13	=13	=13	=13
1r	.	1F)	.	2A	.	(4b	.	VI(4)
!	!	!	!	!	!	!LO:TX:a:t=VI	!	!
.	.	.	.	.	.	8.aL	.	.
.	.	.	.	.	.	16bJk	.	.
.	.	.	.	2d#X)	.	4cc	.	.Ger6
.	.	.	.	.	.	8.bL	.	.
.	.	.	.	.	.	16aJk)	.	.
=14	=14	=14	=14	=14	=14	=14	=14	=14
1r	.	1E	.	1B	.	(4a	.	V(4)
.	.	.	.	.	.	2g#X	.	V
.	.	.	.	.	.	8.fL	.	.
*clefF4	*	*	*	*	*	*	*	*
=15	=15	=15	=15	=15	=15	=15	=15	=15
1ryy	p	1ryy	.	1ryy	.	(4e	.	V65
.	.	.	.	.	.	8.fL	.	.
.	.	.	.	.	.	16eJk)	.	.
.	.	.	.	.	.	(4e	.	.
.	.	.	.	.	.	8.ddL	.	.
.	.	.	.	.	.	16bJk)	.	.
=16	=16	=16	=16	=16	=16	=16	=16	=16
(2.AA	<	4E]	<	2.c	<	(4dd	<	i(11)
.	.	(8.BL	.	.	.	2cc	.	i(9#7)
.	.	16G#XJk	.	.	.	.	.	.
.	.	4B	.	.	.	.	.	.
4BB)	[ > ]]	[4A)	[ > ]]	4r	[ > ]]	8.ffL	[ >	iio7
.	.	.	.	.	.	16dd#XJk)	]]	.
=17	=17	=17	=17	=17	=17	=17	=17	=17
(4C	<	4A]	<	4r	<	(4ff	<	i6(6)
2c	.	2e	.	(8.b-XL	.	2ee	.	i6(#7b2)
.	.	.	.	16g#XJk	.	.	.	.
.	.	.	.	4b-	.	.	.	.
4c#X)	[ > ]]	4e	[ > ]]	4a)	[ > ]]	8.aaL	[ >	V6/iv
.	.	.	.	.	.	16eeJk)	]]	.
=18	=18	=18	=18	=18	=18	=18	=18	=18
!	!	!	!	!	!	!LO:TX:b:i:t=cresc.	!	!
[2d	.	2r	.	4r	.	(4gg	.	iv(4)
!	!	!	!	!LO:TX:b:i:t=cresc.	!	!	!	!
.	.	.	.	(8.aL	.	[4ff)	.	iv
.	.	.	.	16eJk	.	.	.	.
4d]	.	4r	.	4gn	.	(8.ffL]	.	.bII6(6)
.	.	.	.	.	.	16ddnJk)	.	.
!LO:TX:b:i:t=cresc.	!	!LO:TX:b:i:t=cresc.	!	!	!	!	!	!
(8.dL	.	[4B-X [4d	.	[4f)	.	(8.ddL	.	.bII
16B-XJk)	.	.	.	.	.	16b-XJk)	.	.
=19	=19	=19	=19	=19	=19	=19	=19	=19
(8.B-XL	f	4B-] 4d]	f	4f]	f	(8.b-XL	f	.
16FJk)	.	.	.	.	.	16fJk)	.	.
(8.FL	.	(8.FL	.	(8.fL	.	(8.fL	.	.
16DJk)	.	16DJk)	.	16dJk)	.	16dJk)	.	.
(8.DL	.	(8.DL	.	(8.dL	.	(8.dL	.	.
16BB-XJk)	.	16B-XJk)	.	16B-XJk)	.	16B-XJk)	.	.
(8.BB-L	.	(8.B-L	.	(8.B-L	.	(8.B-L	.	.
16AAJk)	.	16AJk)	.	16AJk)	.	16AJk)	.	.
=20	=20	=20	=20	=20	=20	=20	=20	=20
4GG#X'	.	4G#X'	.	4G#X'	.	4G#X'	.	#viio
4GGn'	.	4Gn'	.	4cc#X' 4ee	.	4A'	.	V2/iv
4FF#X'	.	4F#X'	.	4dd'	.	4a'	.	IV6
4FFn'	.	4Fn' 4A	.	4d#X' 4a	.	(8aaL	.	.Ger6
.	.	.	.	.	.	8bbnJ)	.	.
=21	=21	=21	=21	=21	=21	=21	=21	=21
!	!	!	!	!	!	!LO:TX:a:B:t=Adagio	!	!
*MM60	*	*MM60	*	*MM60	*	*MM60	*	*
!	!	!	!	!	!LO:DY:a	!LO:TX:a:t=[quarter]=60	!	!
1EE	fp	1A	fp	1c 1e	fp fp	(4ccc	<	V(64)
.	.	.	.	.	.	4ee	.	.
.	.	.	.	.	.	4aa	[ >	.
.	.	.	.	.	.	8eeL	.	.
.	.	.	.	.	.	8ccJ)	]]	.
=22	=22	=22	=22	=22	=22	=22	=22	=22
!	!	!	!	!	!	!LO:TX:a:B:t=Allegro	!	!
*MM120	*	*MM120	*	*MM120	*	*MM120	*	*
!	!	!	!	!	!	!LO:TX:a:t=[quarter]=120	!	!
4E	p	4G#X	p	4e	p	(16bLL	p	V9
.	.	.	.	.	.	16a	.	.
.	.	.	.	.	.	16g#X	.	.
.	.	.	.	.	.	16bJJ	.	.
4r	.	4r	.	4r	.	16fLL	.	.
.	.	.	.	.	.	16e	.	.
.	.	.	.	.	.	16d	.	.
.	.	.	.	.	.	16fJJ	.	.
2r	.	2r	.	2r	.	16dLL	.	.
.	.	.	.	.	.	16c	.	.
.	.	.	.	.	.	16B	.	.
.	.	.	.	.	.	16dJJ	.	.
.	.	.	.	.	.	16fLL	.	.
.	.	.	.	.	.	16g#	.	.
.	.	.	.	.	.	16b	.	.
.	.	.	.	.	.	16ddJJ)	.	.
=23	=23	=23	=23	=23	=23	=23	=23	=23
4r	.	1r	.	4r	.	(1ff	.	VI6
(8.AAL	p	.	.	(8.AL	p	.	.	.
16BBJk	.	.	.	16BJk	.	.	.	.
4C	.	.	.	4c	.	.	.	.
8.BBL	.	.	.	8.BL	.	.	.	.
16AAJk)	.	.	.	16AJk)	.	.	.	.
=24	=24	=24	=24	=24	=24	=24	=24	=24
(4AA	.	2r	.	(4A	.	1ee)	.	V6
2.GG#X)	.	.	.	2.G#X)	.	.	.	.
.	.	4r	.	.	.	.	.	.
.	.	(8.FL	p	.	.	.	.	.
.	.	16EJk)	.	.	.	.	.	.
=25	=25	=25	=25	=25	=25	=25	=25	=25
1r	.	(4E	.	(1G#X	.	1r	.	V7
.	.	8.FL	.	.	.	.	.	.
.	.	16EJk)	.	.	.	.	.	.
.	.	(4E	.	.	.	.	.	.
.	.	8.dL	.	.	.	.	.	.
.	.	16BJk)	.	.	.	.	.	.
=26	=26	=26	=26	=26	=26	=26	=26	=26
2r	.	(4d	.	2.A)	.	1r	.	iio7
.	.	2c	.	.	.	.	.	.
4r	.	.	.	.	.	.	.	.
*clefC4	*	*	*	*	*	*	*	*
(8.fL	.	4B	.	[4a	.	.	.	.
16d#XJk)	<	.	.	.	.	.	.	.
=27	=27	=27	=27	=27	=27	=27	=27	=27
(4f	.	2.c)	.	(4a]	.	2r	.	i6
2.e)	[ > ]]	.	.	8.b-XL	.	.	.	.
.	.	.	.	16g#XJk	.	.	.	.
.	.	.	.	4b-	.	4r	.	.
.	.	4c#X	.	4a)	.	(8.aaL	.	V6/iv
.	.	.	.	.	.	16eeJk)	.	.
=28	=28	=28	=28	=28	=28	=28	=28	=28
!	!	!LO:TX:b:i:t=cresc.	!	!LO:TX:b:i:t=cresc.	!	!LO:TX:b:i:t=cresc.	!	!
4r	.	2.d	.	2a	.	(4gg	.	iv(4)
!LO:TX:b:i:t=cresc.	!	!	!	!	!	!	!	!
(8.aL	.	.	.	.	.	4ff)	.	iv
16eJk)	.	.	.	.	.	.	.	.
(8.gL	.	.	.	2b-X	.	(8.bb-XL	.	vii64
16fJk)	.	.	.	.	.	16ffJk)	.	.bII6
(8.fL	.	4B-X 4d	.	.	.	(8.ffL	.	.bII
16dnJk)	.	.	.	.	.	16ddJk)	.	.
=29	=29	=29	=29	=29	=29	=29	=29	=29
(8.DL	f f	(8.dL	f	(8.ddL	.	(8.ddL	f	.bII6
16BB-XJk)	.	16B-XJk)	.	16b-XJk)	.	16b-XJk)	.	.
(8.BB-L	.	(8.B-L	.	(8.b-L	.	(8.b-L	.	.
16FFJk)	.	16FJk)	.	16fJk)	.	16fJk)	.	.
(8.FFL	.	(8.FL	.	(8.fL	.	(8.fL	.	.
16DDJk)	.	16DJk)	.	16dJk)	.	16dJk)	.	.
(8.DDL	.	(8.DL	.	(8.dL	.	(8.dL	.	.
16DD-XJk)	.	16B-Jk)	.	16B-XJk)	.	16B-XJk)	.	VI.iv6
=30	=30	=30	=30	=30	=30	=30	=30	=30
1DD-X	f	(4D-X	f	4B-X	f	1B-X	f	V7(b2)
.	.	8.GL	.	4r	.	.	.	.
.	.	16A-XJk	.	.	.	.	.	.
.	.	4B-X	.	2r	.	.	.	.
.	.	8.GL	.	.	.	.	.	.
.	.	16FJk)	.	.	.	.	.	.
=31	=31	=31	=31	=31	=31	=31	=31	=31
1CC	>]	(4F	>	1r	.	(4B-X	>	V7(4)
.	.	2.E)	]]	.	.	8.gL	.	V7
.	.	.	.	.	.	16a-XJk	.	.
.	.	.	.	.	.	4b-X	.	.
.	.	.	.	.	.	8.gL	.	.
.	.	.	.	.	.	16fJk)	]]	.
=32	=32	=32	=32	=32	=32	=32	=32	=32
1DD-X	f	(4B-X	f	4r	.	(4f	f	V7(4b2)
.	.	8.GL	.	(8.gL	f	2e)	.	V7(b2)
.	.	16A-XJk	.	16a-XJk	.	.	.	.
.	.	4B-	.	4b-X	.	.	.	.
.	.	8.GL	.	8.gL	.	(4b-X	.	.
.	.	16FJk)	.	16fJk)	.	.	.	.
=33	=33	=33	=33	=33	=33	=33	=33	=33
2.CC	>	(4F	>	(4f	>	4bb-X	>	V7(4)
.	.	2E)	.	2e	.	8.ggL	.	V7
.	.	.	.	.	.	16aa-XJk	.	.
.	.	.	.	.	.	4bb-	.	.
4c	]]	4e	]]	4g)	]]	8.ggL	.	.
.	.	.	.	.	.	16ffJk)	]]	.
=34	=34	=34	=34	=34	=34	=34	=34	=34
4r	.	4r	.	4r	.	(4ff	p	.
4c	p	4e	p	4g	p	8.eeL	.	V+7
.	.	.	.	.	.	16bnJk)	.	.
4r	.	4r	.	4r	.	(4b	.	.
4E	.	4c	.	4g	.	8.ccL	.	V65
.	.	.	.	.	.	16b-XJk)	.	.
=35	=35	=35	=35	=35	=35	=35	=35	=35
4r	.	4r	.	4r	.	(4b-X	.	.
4F	.	4c	.	4an	.	8.anL	.	I
.	.	.	.	.	.	16aanJk)	.	.
4r	.	4r	.	4r	.	(4aa	.	.
4AA	.	4c	.	4f	.	8.ggL	.	I6
.	.	.	.	.	.	16ffJk)	.	.
=36	=36	=36	=36	=36	=36	=36	=36	=36
4r	.	4r	.	4r	.	(12ffL	.	.
.	.	.	.	.	.	12ee	.	.
.	.	.	.	.	.	12ffJ	.	.
4C	.	4G	.	4c 4e	.	12ff#XL	.	V
.	.	.	.	.	.	12gg	.	.
.	.	.	.	.	.	12bnJ	.	.
4r	.	4r	.	4r	.	12ddL	.	.
.	.	.	.	.	.	12cc	.	.
.	.	.	.	.	.	12bJ	.	.
4c	.	4cc	.	4g	.	12ccL	.	V7
.	.	.	.	.	.	12dd	.	.
.	.	.	.	.	.	12b-XJ)	.	.
=37	=37	=37	=37	=37	=37	=37	=37	=37
4r	.	4r	.	4r	.	(16b-XLL	.	.
.	.	.	.	.	.	16a	.	.
.	.	.	.	.	.	16g#X	.	.
.	.	.	.	.	.	16aJJ	.	.
4f	.	4a	.	4cc	.	16b-LL	.	I
.	.	.	.	.	.	16bn	.	.
.	.	.	.	.	.	16cc	.	.
.	.	.	.	.	.	16cc#XJJ	.	.
4r	.	4r	.	4r	.	16ddLL	.	.
.	.	.	.	.	.	16dd#X	.	.
.	.	.	.	.	.	16ee	.	.
.	.	.	.	.	.	16ffJJ	.	.
4A	.	4f	.	4cc	.	16ggnLL	.	I6
.	.	.	.	.	.	16aa	.	.
.	.	.	.	.	.	16gg	.	.
.	.	.	.	.	.	16ffJJ)	.	.
=38	=38	=38	=38	=38	=38	=38	=38	=38
!LO:TX:a:i:t=cresc.	!	!	!	!	!	!	!	!
!LO:TX:b:i:t=cresc.	!	!	!	!LO:TX:b:i:t=cresc.	!	!LO:TX:b:i:t=cresc.	!	!
8B-X'L	.	(16dLL	.	(16fLL	.	(16ffLL	.	IV
.	.	16c#X	.	16e	.	16ee	.	.
8BB-X'	.	16d	.	16f	.	16ff	.	.
.	.	16B-XJJ)	.	16dJJ)	.	16ddJJ)	.	.
8B-'	.	8B-'L	.	8d'L	.	8dd'L	.	ii
8GG'J	.	8B-'J	.	8d'J	.	8dd'J	.	.
8G'L	.	(16B-LL	.	(16dLL	.	(16ddLL	.	.
.	.	16A	.	16c#X	.	16cc#X	.	.
8GG'	.	16B-	.	16d	.	16dd	.	.
.	.	16GJJ)	.	16B-XJJ)	.	16b-XJJ)	.	.
8G'	.	8G'L	.	8B-'L	.	8bb-X'L	.	viio
8EE'J	.	8G'J	.	8b-X'J	.	8bb-'J	.	.
=39||	=39||	=39||	=39||	=39||	=39||	=39||	=39||	=39||
*k[b-]	*	*k[b-]	*	*k[b-]	*	*k[b-]	*	*
8C'L	.	(16GLL	.	(16b-LL	.	(16bb-LL	.	V7
.	.	16F#X	.	16a	.	16aa	.	.
8CC'	.	16G	.	16b-	.	16bb-	.	.
.	.	16EJJ)	.	16gJJ)	.	16ggJJ)	.	.
8C'	.	8E'L	.	8g'L	.	8gg'L	.	.
8C'J	.	8E'J	.	8g'J	.	8gg'J	.	.
8C'L	.	(16ELL	.	(16gLL	.	(16ggLL	.	.
.	.	16D#X	.	16f#X	.	16ff#X	.	.
8CC'	.	16E	.	16g	.	16gg	.	.
.	.	16CJJ)	.	16eJJ)	.	16eeJJ)	.	.
8C'	.	8C'L	.	8e'L	.	8ee'L	.	.
8BB-'J	f	8B-'J	f	8g'J	f	8ddd'J	f	iv.iv6
=40	=40	=40	=40	=40	=40	=40	=40	=40
8.B-'	.	4d'	.	4g'	.	4ddd'	.	.
16r	.	.	.	.	.	.	.	.
[2.A	f p	4c#X'	.	4e'	.	8eee'	.	V\\
.	.	.	.	.	.	16r	.	.
.	.	.	.	.	.	16e	p	.
.	.	2r	.	2r	.	4a'	.	.
.	.	.	.	.	.	4a'	.	.
=41	=41	=41	=41	=41	=41	=41	=41	=41
4..A]	.	2r	.	4r	.	(4.a	.	.
.	.	.	.	8.r	.	.	.	.
.	.	.	.	.	.	16gLL	.	.
16A	.	.	.	16fn	p	16fnJJ)	.	i64
4d'	.	[2A	p	4b-'	.	8f'L	.	VI6(+5)
.	.	.	.	.	.	8f'J	.	.
4d'	.	.	.	4b-'	.	(16fLL	.	.
.	.	.	.	.	.	16gJ	.	.
.	.	.	.	.	.	8fJ)	.	.
=42	=42	=42	=42	=42	=42	=42	=42	=42
(4d	.	4..A]	.	(4.b-	.	4f	.	.
4c#X)	.	.	.	.	.	8e	.	V65
.	.	.	.	16aLL	.	16r	.	.
.	.	16e	.	16gJJ)	.	16ee	.	.
8e'L	.	4cc#X'	.	8g'L	.	4aa'	.	V43
8e'J	.	.	.	8g'J	.	.	.	.
(16eLL	.	8cc#'	.	(16gLL	.	4aa'	.	.
16fJ	.	.	.	16aJ	.	.	.	.
8eJ)	.	16r	.	8gJ)	.	.	.	.
.	.	16a	.	.	.	.	.	.
=43	=43	=43	=43	=43	=43	=43	=43	=43
(4e	.	4dd'	.	(4g	.	(4.aa	.	i
4d)	.	4dd'	.	4f)	.	.	.	.
.	.	.	.	.	.	16ggLL	.	.
.	.	.	.	.	.	16ff#XJJ)	.	.
4G'	.	8dd'L	.	8Bn'L	.	8ff#'L	.	VI.V7/V
.	.	8dd'J	.	8bn'J	.	8ff#'J	.	.
4G'	.	(16ddLL	.	(16bLL	.	(16ff#LL	.	.
.	.	16ccnJ	.	16aJ	.	16ggJ	.	.
.	.	8ddJ)	.	8bJ)	.	8ff#J)	.	.
=44	=44	=44	=44	=44	=44	=44	=44	=44
!LO:TX:b:i:t=cresc.	!	!LO:TX:b:i:t=cresc.	!	!LO:TX:b:i:t=cresc.	!	!LO:TX:b:i:t=cresc.	!	!
(8CnL	.	(8GL	.	(8ccL	.	(8.ffL	.	V7
8B-J)	.	8CJ)	.	8gJ)	.	.	.	.
.	.	.	.	.	.	16dd#XJk)	.	.
(8CL	.	(8gL	.	(8ccL	.	(8.eeL	.	.
8B-J)	.	8cJ)	.	8gJ)	.	.	.	.
.	.	.	.	.	.	16ggJk)	.	.
(8CL	.	(8fL	.	(8ccL	.	(8.ggL	.	V(64)
8AJ)	.	8cJ)	.	8fJ)	.	.	.	.
.	.	.	.	.	.	16ffJk)	.	.
(8CL	.	(8aL	.	(8ccL	.	(8.ffL	.	.
8AJ)	.	8AJ)	.	8cJ)	.	.	.	.
.	.	.	.	.	.	16ff#XJk)	.	.
=45	=45	=45	=45	=45	=45	=45	=45	=45
(8CL	.	(8gL	.	(8ccL	.	(8.ff#XL	.	V
8EJ)	.	8cJ)	.	8gJ)	.	.	.	.
.	.	.	.	.	.	16ggJk)	.	.
(8CL	.	(8cL	.	(8gL	.	(8.ggL	.	.
8EJ)	.	8GJ)	.	8cJ)	.	.	.	.
.	.	.	.	.	.	16gg#XJk)	.	.
(8CL	.	(8cL	.	(8fL	.	(8.gg#L	.	V(64)
8FJ)	.	8FJ)	.	8cJ)	.	.	.	.
.	.	.	.	.	.	16aaJk)	.	.
(8E-XL	.	(8fL	.	(8aL	.	(8.aaL	.	V2/IV
8FJ)	.	8AJ)	.	8fJ)	.	.	.	.
.	.	.	.	.	.	16bb-Jk)	.	.
=46	=46	=46	=46	=46	=46	=46	=46	=46
(8DL	.	(8fL	.	(8b-L	.	(8.bb-L	.	IV6
8FJ)	.	8dJ)	.	8f)	.	.	.	.
.	.	.	.	.	.	16bbnJk)	.	.
(8AAL	.	(8fL	.	(8cc	.	(8.bbL	.	I6
8FJ)	.	8cJ)	.	8fJ)	.	.	.	.
.	.	.	.	.	.	16cccJk)	.	.
(8BB-L	.	(8fL	.	(8b-L	.	(8.cccL	.	IV
8FJ)	.	8B-J)	.	8f)	.	.	.	.
.	.	.	.	.	.	16ccc#XJk)	.	.
(8BB-L	.	(8B-L	.	(8f	.	(8.ccc#L	.	.
8FJ)	.	8FJ)	.	8B-J)	.	.	.	.
.	.	.	.	.	.	16dddJk)	.	.
=47	=47	=47	=47	=47	=47	=47	=47	=47
(8BB-L	.	(8dL	.	(8fL	.	(8.dddL	.	.
8FJ)	.	8FJ)	.	8d)	.	.	.	.
.	.	.	.	.	.	16eeeJk)	.	.
(8BBnL	.	(8dL	.	(8g	.	(8.eeeL	.	V65/V
8GJ)	.	8GJ)	.	8dJ)	.	.	.	.
.	.	.	.	.	.	16fffJk)	.	.
(8CL	.	(8fL	f	(8aL	f	(8.fffL	f	V(64)
8AJ)	.	8AJ)	.	8f)	.	.	.	.
.	.	.	.	.	.	16ffJk)	.	.
(8CL	>	(8B-L	>	(8e	>	(8.aaL	>	V7(6)
8B-XJ)	]]	8EJ)	]]	8GJ)	]]	.	.	.
.	.	.	.	.	.	16ggJk)	]]	V7
=48	=48	=48	=48	=48	=48	=48	=48	=48
!LO:TX:a:t=non legato	!	!LO:TX:a:t=non legato	!	!	!	!	!	!
4FF	p	12r	.	2r	.	1r	.	I
.	.	12DL	p	.	.	.	.	.
.	.	12CJ	.	.	.	.	.	.
12r	.	4A	.	.	.	.	.	.
12DL	.	.	.	.	.	.	.	.
12CJ	.	.	.	.	.	.	.	.
4FF	.	12r	.	8r	.	.	.	.
.	.	12DL	.	.	.	.	.	.
!	!	!	!	!LO:TX:a:t=p dolce	!	!	!	!
.	.	.	.	(8fL	.	.	.	.
.	.	12CJ	.	.	.	.	.	.
12r	.	4A	.	8g	.	.	.	.
12DL	.	.	.	.	.	.	.	.
.	.	.	.	8aJ)	.	.	.	.
12CJ	.	.	.	.	.	.	.	.
=49	=49	=49	=49	=49	=49	=49	=49	=49
4EE	.	12r	.	(4..b-	.	8r	.	V65
.	.	12DL	.	.	.	.	.	.
.	.	.	.	.	.	(8ggL	p	.
.	.	12CJ	.	.	.	.	.	.
12r	.	4c	.	.	.	8aa	.	.
12DL	.	.	.	.	.	.	.	.
.	.	.	.	.	.	8bb-J)	.	.
12CJ	.	.	.	.	.	.	.	.
.	.	.	.	16a)	.	.	.	.
4EE	.	12r	.	(4g'	.	2r	.	.
.	.	12DL	.	.	.	.	.	.
.	.	12CJ	.	.	.	.	.	.
12r	.	4c	.	4g')	.	.	.	.
12DL	.	.	.	.	.	.	.	.
12CJ	.	.	.	.	.	.	.	.
=50	=50	=50	=50	=50	=50	=50	=50	=50
4FF	.	12r	.	(4b-	.	8r	.	I(4)
.	.	12DL	.	.	.	.	.	.
.	.	.	.	.	.	(8ggL	.	.
.	.	12CJ	.	.	.	.	.	.
12r	.	4c	.	8aL	.	8aa	.	I
12DL	.	.	.	.	.	.	.	.
.	.	.	.	8gJ	.	8bb-J)	.	.
12CJ	.	.	.	.	.	.	.	.
4FF	.	12r	.	4f	.	4r	.	.
.	.	12DL	.	.	.	.	.	.
.	.	12CJ	.	.	.	.	.	.
12r	.	4A	.	8gL	.	4aa	.	.
12DL	.	.	.	.	.	.	.	.
.	.	.	.	8aJ)	.	.	.	.
12CJ	.	.	.	.	.	.	.	.
=51	=51	=51	=51	=51	=51	=51	=51	=51
4GG	.	12r	.	(4.g	.	1r	.	V7/V
.	.	12DL	.	.	.	.	.	.
.	.	12CJ	.	.	.	.	.	.
12r	.	4G	.	.	.	.	.	.
12DL	.	.	.	.	.	.	.	.
.	.	.	.	8e)	.	.	.	.
12CJ	.	.	.	.	.	.	.	.
4GG	.	12r	.	(4.f	.	.	.	.
.	.	12DL	.	.	.	.	.	.
.	.	12CJ	.	.	.	.	.	.
12r	.	4G	.	.	.	.	.	.
12EL	.	.	.	.	.	.	.	.
.	.	.	.	8Bn)	.	.	.	.
12DJ	.	.	.	.	.	.	.	.
=52	=52	=52	=52	=52	=52	=52	=52	=52
4C	.	12r	.	4c	.	8r	.	V
.	.	12FL	.	.	.	.	.	.
.	.	.	.	.	.	(8bnL	.	.
.	.	12EJ	.	.	.	.	.	.
12r	.	4c	.	4r	.	8cc	.	.
12AL	.	.	.	.	.	.	.	.
.	.	.	.	.	.	8eeJ	.	.
12GJ	.	.	.	.	.	.	.	.
4C	.	12r	.	2r	.	8ggL	.	.
.	.	12AL	.	.	.	.	.	.
.	.	.	.	.	.	8bbn	.	.
.	.	12GJ	.	.	.	.	.	.
12r	.	4e	.	.	.	8ccc	.	.
12CL	.	.	.	.	.	.	.	.
.	.	.	.	.	.	8dddJ)	.	.
12BB-J	.	.	.	.	.	.	.	.
=53	=53	=53	=53	=53	=53	=53	=53	=53
4AA	.	12r	.	2r	.	(4..eee-X	<	V65/IV
.	.	12gL	.	.	.	.	.	.
.	.	12fJ	.	.	.	.	.	.
12r	.	4cc	.	.	.	.	.	.
12GL	.	.	.	.	.	.	.	.
12FJ	.	.	.	.	.	.	.	.
.	.	.	.	.	.	16ddd)	.	.
!LO:TX:b:i:t=cresc.	!	!LO:TX:a:i:t=cresc.	!	!LO:TX:b:i:t=cresc.	!	!LO:TX:b:i:t=piu cresc	!	!
4AA	.	12r	.	2f	.	(4ccc#X'	[	I6(#5)
.	.	12B-L	.	.	.	.	.	.
.	.	12AJ	.	.	.	.	.	.
12r	.	4f	.	.	.	4ccc#')	.	.
12GL	.	.	.	.	.	.	.	.
12FJ	.	.	.	.	.	.	.	.
=54	=54	=54	=54	=54	=54	=54	=54	=54
!LO:TX:a:i:t=dim.	!	!LO:TX:a:i:t=dim.	!	!	!	!LO:TX:a:i:t=dim.	!	!
4BB-	.	12r	.	2B-X	.	(4eee-X	.	IV(4)
!	!	!LO:TX:a:i:t=dim.	!	!	!	!	!	!
.	.	12cL	.	.	.	.	.	.
.	.	12B-J	.	.	.	.	.	.
12r	.	4f	.	.	.	8dddL	.	IV
12GL	.	.	.	.	.	.	.	.
.	.	.	.	.	.	8cccnJ	.	.
12FJ	.	.	.	.	.	.	.	.
4BB-	.	12r	.	2dd	.	4bb-X	.	.
.	.	12cL	.	.	.	.	.	.
.	.	12B-J	.	.	.	.	.	.
12r	.	4f	.	.	.	8cccL	.	.
12GL	.	.	.	.	.	.	.	.
.	.	.	.	.	.	8dddJ)	.	.
12FJ	.	.	.	.	.	.	.	.
=55	=55	=55	=55	=55	=55	=55	=55	=55
!	!	!	!	!	!	!LO:TX:b:i:t=teneramente	!	!
4C	p	12r	.	8r	.	(4.ccc	.	V7
.	.	12B-L	p	.	.	.	.	.
.	.	.	.	(16gLL	p	.	.	.
.	.	12AJ	.	.	.	.	.	.
.	.	.	.	16fJJ	.	.	.	.
12r	.	4f	.	16eLL	.	.	.	.
.	.	.	.	16f	.	.	.	.
12GL	.	.	.	.	.	.	.	.
.	.	.	.	16g	.	8aa)	.	V(64)
12FJ	.	.	.	.	.	.	.	.
.	.	.	.	16fJJ)	.	.	.	.
4C	.	12r	.	8r	.	(4.bb-	.	V7
.	.	12cL	.	.	.	.	.	.
.	.	.	.	(16fLL	.	.	.	.
.	.	12B-J	.	.	.	.	.	.
.	.	.	.	16eJJ	.	.	.	.
12r	.	4B- 4g	.	16dLL	.	.	.	.
.	.	.	.	16e	.	.	.	.
12AL	.	.	.	.	.	.	.	.
.	.	.	.	16f	.	8een)	.	.
12GJ	.	.	.	.	.	.	.	.
.	.	.	.	16eJJ)	.	.	.	.
=56	=56	=56	=56	=56	=56	=56	=56	=56
(4.C	.	4r	.	12r	.	8r	.	V(64)
.	.	.	.	12ddL	.	.	.	.
.	.	.	.	.	.	(16ggLL	.	.
.	.	.	.	12ccJ	.	.	.	.
.	.	.	.	.	.	16ffJJ	.	.
.	.	12r	.	4f	.	16eeLL	.	.
.	.	.	.	.	.	16ff	.	.
.	.	12dL	.	.	.	.	.	.
8AA)	.	.	.	.	.	16gg	.	.
.	.	12cJ	.	.	.	.	.	.
.	.	.	.	.	.	16ffJJ	.	.
(4.BB-	.	4G	.	12r	.	16eeLL	.	V2
.	.	.	.	.	.	16gg	.	.
.	.	.	.	12ddL	.	.	.	.
.	.	.	.	.	.	16aa	.	.
.	.	.	.	12ccJ	.	.	.	.
.	.	.	.	.	.	16bb-JJ	.	.
.	.	12r	.	4g	.	16cccLL	.	.
.	.	.	.	.	.	16ccc#X	.	.
.	.	12dL	.	.	.	.	.	.
8EE)	.	.	.	.	.	16ddd	.	V65
.	.	12cJ	.	.	.	.	.	.
.	.	.	.	.	.	16bb-JJ)	.	.
=57	=57	=57	=57	=57	=57	=57	=57	=57
!	!	!LO:TX:a:i:t=dolce	!	!	!	!	!	!
!LO:TX:b:i:t=dolce	!	!LO:TX:b:i:t=dolce	!	!	!	!LO:TX:b:i:t=dolce	!	!
(8FFL	.	(4a	.	(4c	.	(4aa	.	I
16GGL	.	.	.	.	.	.	.	.
16FFJJ	.	.	.	.	.	.	.	.
8EEL	.	4b-	.	4B-	.	4gg	.	viio
16FFL	.	.	.	.	.	.	.	.
16GGJJ	.	.	.	.	.	.	.	.
8AAL	.	4cc	.	4A	.	4ff	.	I6
16BB-L	.	.	.	.	.	.	.	.
16AAJJ	.	.	.	.	.	.	.	.
8GGL	.	4e)	.	4ee)	.	4cc)	.	V43
16AAL	.	.	.	.	.	.	.	.
16BB-JJ)	.	.	.	.	.	.	.	.
=58	=58	=58	=58	=58	=58	=58	=58	=58
(4AA	.	(4c	.	(4cc	.	(8ffL	.	I6
.	.	.	.	.	.	16ggL	.	.
.	.	.	.	.	.	16ffJJ	.	.
4GG	.	4B-	.	4ee	.	8eeL	.	viio6
.	.	.	.	.	.	16ffL	.	.
.	.	.	.	.	.	16ggJJ	.	.
4FF	.	4A	.	4ff	.	8aaL	.	I
.	.	.	.	.	.	16bb-L	.	.
.	.	.	.	.	.	16aaJJ	.	.
8CCL	.	4E)	.	4gg)	.	8ggL	.	V7
8CJ)	.	.	.	.	.	16aaL	.	.
.	.	.	.	.	.	16bb-JJ)	.	.
=59	=59	=59	=59	=59	=59	=59	=59	=59
!LO:TX:b:i:t=cresc.	!	!	!	!	!	!	!	!
!LO:TX:a:i:t=cresc.	!	!	!	!LO:TX:a:i:t=cresc.	!	!LO:TX:a:i:t=cresc.	!	!
8FFL	.	8CL	.	8aaL	.	[4ccc	.	I
(16FFL	.	(16AL	.	16aaL	.	.	.	.
16GGJJ	.	16B-JJ	.	16ggJJ	.	.	.	.
8AAL	.	8cL	.	[4ff	.	8cccL]	.	I6
16BB-L	.	16dL	.	.	.	16cccL	.	.
16CJJ	.	16eJJ	.	.	.	16bb-JJ	.	.
8DL)	.	8fL)	.	8ffL]	.	[4aa	.	vi
(16DL	.	(16fL	.	16ffL	.	.	.	.
16EJJ	.	16gJJ	.	16eeJJ	.	.	.	.
[4F)	.	16aLL	.	[4dd	.	8aaL]	.	vi6
.	.	16g	.	.	.	.	.	.
.	.	16f	.	.	.	16aaL	.	.
.	.	16eJJ)	.	.	.	16ggJJ	.	.
=60	=60	=60	=60	=60	=60	=60	=60	=60
8FL]	.	(16dLL	.	8ddL]	.	[4ff	.	.
.	.	16A	.	.	.	.	.	.
(16GL	.	16B-	.	16ddL	.	.	.	.
16AJJ	.	16cJJ	.	16ccJJ	.	.	.	.
[4B-)	.	16dLL	.	[4b-	.	8ffL]	.	IV
.	.	16e	.	.	.	.	.	.
.	.	16d	.	.	.	(16ffL	.	.
.	.	16cJJ	.	.	.	16eeJJ	.	.
!LO:TX:b:i:t=non legato	!	!	!	!	!	!	!	!
!LO:TX:a:i:t=non legato	!	!	!	!LO:TX:b:i:t=non legato	!	!LO:TX:b:i:t=non legato	!	!
8B-L]	.	8B-L)	.	8b-L]	.	8dd'L)	.	.
16BB-L	.	16b-L	.	16dL	.	16dddL	.	.
16CJJ	.	16aJJ	.	16eJJ	.	16cccJJ	.	.
16DLL	.	16gLL	.	16fLL	.	16bb-LL	.	.
16E	.	16f	.	16g	.	16aa	.	.
16F	.	16e	.	16a	.	16gg	.	.
16GJJ	.	16dJJ	.	16b-JJ	.	16ffJJ	.	.
=61	=61	=61	=61	=61	=61	=61	=61	=61
16B-LL	f	16cLL	f	16ccLL	f	16eeLL	f	V2
16A	.	16d	.	16dd	.	16ff	.	.
16G	.	16e	.	16ee	.	16gg	.	.
16FJJ	.	16fJJ	.	16ffJJ	.	16aaJJ	.	.
16ELL	.	16gLL	.	16ggLL	.	16bb-LL	.	.
16F	.	16f	.	16ff	.	16aa	.	.
16G	.	16e	.	16ee	.	16gg	.	.
16AJJ	.	16dJJ	.	16ddJJ	.	16ffJJ	.	.
16B-LL	.	16cLL	.	16ccLL	.	16eeLL	.	.
16A	.	16d	.	16dd	.	16ff	.	.
16G	.	16e	.	16ee	.	16gg	.	.
16FJJ	.	16fJJ	.	16ffJJ	.	16aaJJ	.	.
16ELL	.	16gLL	.	16ggLL	.	16bb-LL	.	.
16D	.	16a	.	16aa	.	16ccc	.	.
16C	.	16b-	.	16bb-	.	16ddd	.	.
16BB-JJ	.	16ccJJ	.	16cccJJ	.	16eeeJJ	.	.
=62	=62	=62	=62	=62	=62	=62	=62	=62
16AALL	.	16fLL	.	16ffLL	.	4fff'	.	I6
16BB-	.	16g	.	16ee	.	.	.	.
16C	.	16a	.	16dd	.	.	.	.
16DJJ	.	16b-JJ	.	16ccJJ	.	.	.	.
16ELL	.	16ccLL	.	16b-LL	.	4r	.	.
16F	.	16dd	.	16a	.	.	.	.
16G	.	16ee	.	16g	.	.	.	.
16AJJ	.	16ffJJ	.	16fJJ	.	.	.	.
[2d	ff	[2f	ff	2bn	ff	16ggLL	ff	V43/V
.	.	.	.	.	.	16aa	.	.
.	.	.	.	.	.	16bbn	.	.
.	.	.	.	.	.	16cccJJ	.	.
.	.	.	.	.	.	16dddLL	.	.
.	.	.	.	.	.	16eee	.	.
.	.	.	.	.	.	16fff	.	.
.	.	.	.	.	.	16gggJJ	.	.
=63	=63	=63	=63	=63	=63	=63	=63	=63
!LO:TX:b:i:t=legato	!	!LO:TX:b:i:t=legato	!	!LO:TX:b:i:t=legato	!	!	!	!
4d]	p	4f]	p	4bn	p	(16gggLL	p	.
!	!	!	!	!	!	!LO:TX:b:i:t=legato	!	!
.	.	.	.	.	.	16fff	.	.
.	.	.	.	.	.	16eee	.	.
.	.	.	.	.	.	16fffJJ	.	.
(4d	.	(4f	.	(4b-X	.	16eeeLL	.	IV6
.	.	.	.	.	.	16fff	.	.
.	.	.	.	.	.	16eee	.	.
.	.	.	.	.	.	16dddJJ)	.	.
4e	.	4g	.	4cc	.	(16dddLL	.	V6
.	.	.	.	.	.	16ccc	.	.
.	.	.	.	.	.	16bbn	.	.
.	.	.	.	.	.	16cccJJ)	.	.
4g	.	4b-X	.	4ee	.	(16cccLL	.	V43
.	.	.	.	.	.	16bb-X	.	.
.	.	.	.	.	.	16aa	.	.
.	.	.	.	.	.	16ggJJ)	.	.
=64	=64	=64	=64	=64	=64	=64	=64	=64
4a)	.	4cc)	.	4ff)	.	(16ggLL	.	I6
.	.	.	.	.	.	16ff	.	.
.	.	.	.	.	.	16ee	.	.
.	.	.	.	.	.	16ffJJ	.	.
*	*	*	*	*^	*	*	*	*
(4BBn	.	(4G	.	(2f	4d	.	16eeLL	.	V65/V
.	.	.	.	.	.	.	16ff	.	.
.	.	.	.	.	.	.	16ee	.	.
.	.	.	.	.	.	.	16ddJJ)	.	.
4C	.	4A	.	.	4c	.	(16ddLL	.	V(6)
.	.	.	.	.	.	.	16cc	.	.
.	.	.	.	.	.	.	16bn	.	.
.	.	.	.	.	.	.	16ccJJ)	.	.
*	*	*	*	*v	*v	*	*	*	*
4E)	.	4G)	.	4g)	.	(16ccLL	.	V65
.	.	.	.	.	.	16b-X	.	.
.	.	.	.	.	.	16a	.	.
.	.	.	.	.	.	16gJJ)	.	.
=65	=65	=65	=65	=65	=65	=65	=65	=65
(16GLL	.	(4F	.	(4c	.	(4a	.	I
16F	.	.	.	.	.	.	.	.
16E	.	.	.	.	.	.	.	.
16FJJ	.	.	.	.	.	.	.	.
!LO:TX:b:i:t=cresc.	!	!LO:TX:b:i:t=cresc.	!	!LO:TX:b:i:t=cresc.	!	!LO:TX:b:i:t=cresc.	!	!
16ELL	.	4d	.	4g	.	4bn	.	V43/V
16F	.	.	.	.	.	.	.	.
16E	.	.	.	.	.	.	.	.
16DJJ)	.	.	.	.	.	.	.	.
(16DLL	.	4e	.	4G	.	4cc	.	V
16C	.	.	.	.	.	.	.	.
16BBn	.	.	.	.	.	.	.	.
16CJJ)	.	.	.	.	.	.	.	.
(16CLL	.	4g)	.	4cc)	.	4ee)	.	V2
16BB-X	.	.	.	.	.	.	.	.
16AA	.	.	.	.	.	.	.	.
16GGJJ)	.	.	.	.	.	.	.	.
=66	=66	=66	=66	=66	=66	=66	=66	=66
(16BB-LL	.	4f	.	4cc	.	(16ggLL	.	I6
16AA	.	.	.	.	.	16ff	.	.
16GG	.	.	.	.	.	16ee	.	.
16AAJJ)	.	.	.	.	.	16ffJJ	.	.
4D	.	4F	.	4Bn	.	16eeLL	.	#viio6/V
.	.	.	.	.	.	16ff	.	.
.	.	.	.	.	.	16gg	.	.
.	.	.	.	.	.	16aaJJ)	.	.
(16CLL	.	(16FLL	.	(16cLL	.	(16aaLL	.	V7
16BB-	.	16G	.	16g	.	16bb-X	.	.
16AA	.	16A	.	16f	.	16ccc	.	.
16GGJJ	.	16B-JJ	.	16eJJ	.	16ccc#XJJ	.	.
16FFLL	.	16ALL	.	16fLL	.	16dddLL	.	.
16EE	.	16G	.	16g	.	16ccc#	.	.
16DD	.	16F	.	16a	.	16ddd	.	.
16CCJJ)	.	16GJJ)	.	16b-XJJ)	.	16eeJJ)	.	.
=67	=67	=67	=67	=67	=67	=67	=67	=67
(8.FFL	ff	(8.AL	ff	(8.aL	ff	(8.ffL	ff	I
16GGJk)	.	16B-Jk)	.	16gJk)	sf	16eeJk)	.	viio6
(8.BB-L	sf	(8.EL	sf	(8.GL	.	(8.dd-XL	sf	viio43
16D-XJk)	.	16GJk)	.	16eJk)	.	16b-Jk)	.	.
(8.EL	sf	(8.d-XL	sf	(8.B-L	sf	(8.gL	sf	viio7
16GJk)	.	16B-Jk)	.	16d-XJk)	.	16eJk)	.	viio65
(8.GL	sf	(8.B-L	sf	(8.eL	sf	(8.dd-L	sf	.
16AJk)	.	16cJk)	.	16fJk)	.	16ccJk)	.	I6
=68	=68	=68	=68	=68	=68	=68	=68	=68
(2BBn	p	(2A-X	p	(2f	p	(2ddn	p	#viio7/V
2C)	.	2G)	.	2e)	.	2cc)	.	V
=69	=69	=69	=69	=69	=69	=69	=69	=69
(8.FL	sf	(8.anL	sf	(8.cL	sf	(8.ccL	sf	I
16EJk)	.	16gJk)	.	16d-XJk)	.	16dd-XJk)	.	viio7
(8.D-XL	sf	(8.b-L	sf	(8.eL	sf	(8.eeL	sf	.
16BB-XJk)	.	16gJk)	.	16dd-XJk)	.	16ggJk)	.	.
(8.GGL	sf	(8.B-L	sf	(8.dd-L	sf	(8.bb-L	sf	.
16EEJk)	.	16GJk)	.	16bb-Jk)	.	16ddd-XJk)	.	.
(8.D-L	sf	(8.B-L	sf	(8.ggL	sf	(8.eeeL	sf	.
16CJk)	.	16AJk)	.	16aaJk)	.	16fffJk)	.	I64
=70	=70	=70	=70	=70	=70	=70	=70	=70
(2Dn	p	(2A-X	p	(2f	p	(2bn	p	#viio65/V
2C)	.	2f)	.	2A)	.	2cc)	.	V(64)
=71	=71	=71	=71	=71	=71	=71	=71	=71
!	!	!	!	!	!	!LO:TX:b:t=rit.	!	!
(2BBn	.	(2A-X	.	(2f	.	[2ddn	.	#viio7/V
2C)	.	2G)	.	2e)	.	(8ddL]	.	V(+2)
.	.	.	.	.	.	8e	.	.
.	.	.	.	.	.	8dd	.	.
.	.	.	.	.	.	8ccJ)	.	V
=72	=72	=72	=72	=72	=72	=72	=72	=72
!	!	!LO:TX:a:i:t=cresc.	!	!	!	!	!	!
!LO:TX:b:i:t=cresc.	!	!LO:TX:b:i:t=cresc.	!	!	!	!LO:TX:b:i:t=cresc.	!	!
(2BBn	.	(2A-X	.	(2f	.	[2dd	.	#viio7/V
2CC) 2C	.	2C) 2G	.	2G) 2e	.	8ddL]	.	V7
.	.	.	.	.	.	(8c	.	.
.	.	.	.	.	.	8b-X	.	.
.	.	.	.	.	.	8gJ)	.	.
=73	=73	=73	=73	=73	=73	=73	=73	=73
!	!	!	!	!	!	!LO:TX:a:B:t=A tempo	!	!
8F	p	8F	p	8f	p	8a	p	I
8r	.	8r	.	8r	.	8r	.	.
8D	.	8F	.	8f	.	8b-	.	IV6
8r	.	8r	.	8r	.	8r	.	.
8C	.	8f	.	8a	.	8cc	.	I64
8r	.	8r	.	8r	.	8r	.	.
8C	f	8e	f	8g	f	8gg	f	V
8r	.	8r	.	8r	.	8r	.	.
=74	=74	=74	=74	=74	=74	=74	=74	=74
4r	.	4r	.	4r	.	4r	.	.
2.FF	p	4c	p	4e-X	p	4aa	p	V7/IV\\
.	.	2r	.	2r	.	2r	.	.
=75	=75	=75	=75	=75	=75	=75	=75	=75
(1FF	pp	1r	.	1r	.	1r	pp	I
=76	=76	=76	=76	=76	=76	=76	=76	=76
1FF#X	.	1r	.	1r	.	[1A	.	vii.#viio
=77	=77	=77	=77	=77	=77	=77	=77	=77
1E-X	pp	(1F	.	1r	.	1A_	.	V2/III
=78	=78	=78	=78	=78	=78	=78	=78	=78
[1D)	.	1F#X)	.	(1a	pp	1A_	.	V
=79	=79	=79	=79	=79	=79	=79	=79	=79
1D]	.	(1e-X	.	1cc)	.	(4A]	.	V(b9)
.	.	.	.	.	.	8.f#XL	.	.
.	.	.	.	.	.	16gJk	.	.
.	.	.	.	.	.	4a	.	.
.	.	.	.	.	.	8.gL	.	.
.	.	.	.	.	.	16f#Jk)	.	.
=80	=80	=80	=80	=80	=80	=80	=80	=80
1D	.	1d)	.	(2b-	.	(4a	.	i64(5)
.	.	.	.	.	.	[4g)	.	i64
.	.	.	.	2B-)	.	8gL]	.	.
.	.	.	.	.	.	(8g	.	.
.	.	.	.	.	.	8f#X	.	.
.	.	.	.	.	.	8gJ	.	.
=81	=81	=81	=81	=81	=81	=81	=81	=81
[1D	.	(1F#X	.	(1c 1e-X	.	4b-	.	V9(6)
.	.	.	.	.	.	8.aL	.	V9
.	.	.	.	.	.	16b-Jk	.	.
.	.	.	.	.	.	4cc	.	.
.	.	.	.	.	.	8.b-L	.	.
.	.	.	.	.	.	16aJk)	.	.
=82	=82	=82	=82	=82	=82	=82	=82	=82
1D]	.	1G)	.	1B-) 1d	.	(4cc	.	i64(11)
.	.	.	.	.	.	2b-)	.	i64
.	.	.	.	.	.	(8.ee-XL	.	.
.	.	.	.	.	.	16ddJk)	.	.
=83	=83	=83	=83	=83	=83	=83	=83	=83
(4D	.	(4F#X	.	1c 1d	.	(4dd	.	V7
8.F#XL	.	8.AL	.	.	.	8.ee-XL	.	V65
16GJk	.	16B-Jk	.	.	.	16ddJk)	.	.
4A	.	4c	.	.	.	(4dd	.	.
4F#)	.	4A)	.	.	.	8.cccL	.	.
.	.	.	.	.	.	16aaJk)	.	.
=84	=84	=84	=84	=84	=84	=84	=84	=84
(4Fn	<	(4A-X	<	4d	<	(4ccc	<	iii.#viio43(2)
8.DL	.	8.FnL	.	(2G 2g	.	2bbn	.	V43
16E-XJk	.	16GJk	.	.	.	.	.	.
4F	>	4A-	>	.	.	.	.	.
8E-L	]	8GL	]	8.a-XL	[ >	4ccc)	[ > ]]	i
8CJ)	]]	8E-XJ)	]]	.	.	.	.	.
.	.	.	.	16gJk)	]]	.	.	.
=85	=85	=85	=85	=85	=85	=85	=85	=85
1BBn	.	1D 1G	.	(4dd	.	4ddd	.	V6
.	.	.	.	4g	.	(8.ddL	.	.
.	.	.	.	.	.	16ee-XJk	.	.
.	.	.	.	4d	.	4ffn	.	V65
.	.	.	.	4g)	.	8.ee-L	.	.
.	.	.	.	.	.	16ddJk)	.	.
=86	=86	=86	=86	=86	=86	=86	=86	=86
(2.C	<	2.E-X 2.G	<	(4c	<	(4ff	<	i(4)
.	.	.	.	8.A-XL	.	2ee-X	.	i
.	.	.	.	16GJk)	.	.	.	.
.	.	.	.	4G	.	.	.	.
4BB-X)	[[	[4g	[[	8.e-XL	.	4dd)	[[	v6
.	.	.	.	16dJk	[[	.	.	.
=87	=87	=87	=87	=87	=87	=87	=87	=87
2AA-X	>	(4g]	>	(4d	>	(2cc	>	.Ger6(74)
.	.	8.e-XL	.	8.cL	.	.	.	.
.	.	16dJk	.	16dJk	.	.	.	.
2A-X	]]	4c	.	4e-X	.	2f#X)	]]	.Ger6
.	.	8.dL	.	8.dL	.	.	.	.
.	.	16e-Jk)	]]	16cJk)	]]	.	.	.
=88	=88	=88	=88	=88	=88	=88	=88	=88
!LO:TX:b:i:t=cresc.	!	!LO:TX:b:i:t=cresc.	!	!LO:TX:b:i:t=cresc.	!	!LO:TX:b:i:t=cresc.	!	!
[1G	.	(4e-X	.	(4c	.	1g	.	V7
.	.	8.dL	.	2.Bn)	.	.	.	.
.	.	16e-Jk	.	.	.	.	.	.
.	.	4f	.	.	.	.	.	.
.	.	8.e-L	.	.	.	.	.	.
.	.	16dJk)	.	.	.	.	.	.
=89	=89	=89	=89	=89	=89	=89	=89	=89
4G]	.	(4f	.	2c	.	1ee-X	.	I6
(8.CL	.	8.e-XL	.	.	.	.	.	.
16DJk	.	16fJk	.	.	.	.	.	.
4E-X	.	4g	.	2cc	.	.	.	.
8.DL	.	8.fL	.	.	.	.	.	.
16CJk)	.	16e-Jk)	.	.	.	.	.	.
=90	=90	=90	=90	=90	=90	=90	=90	=90
(4BB-X	.	(8dL	.	1ccc	.	1eee-X	.	VI
.	.	8cJ)	.	.	.	.	.	.
8.AA-XL	.	(8.CL	.	.	.	.	.	.
16BB-Jk	.	16DJk	.	.	.	.	.	.
4C	.	4E-X	.	.	.	.	.	.
8.BB-L	.	8.DL	.	.	.	.	.	.
16AA-Jk)	.	16CJk)	.	.	.	.	.	.
=91	=91	=91	=91	=91	=91	=91	=91	=91
4AA-X'	f f	4F'	.	4ccc'	f	4eee-X'	f	iv65
4AAn'	.	4F#X'	.	4ccc'	.	4ddd'	.	V43/V
4GG'	.	4G'	.	4dd' 4ccc	.	4ddd'	.	V(4)
4GG'	.	4G' 4g	.	4dd' 4bbn	.	4ddd'	.	V
=92||	=92||	=92||	=92||	=92||	=92||	=92||	=92||	=92||
*k[]	*	*k[]	*	*k[]	*	*k[]	*	*
2r	.	2r	.	1r	.	1r	.	I
8.r	.	8.r	.	.	.	.	.	.
(16DDKL	p	(16DKL	p	.	.	.	.	.
8.CC	.	8.C	.	.	.	.	.	.
16DDJk)	.	16DJk)	.	.	.	.	.	.
=93	=93	=93	=93	=93	=93	=93	=93	=93
(8FF	.	(8F	.	1r	.	1r	.	I6
[4.EEn)	.	[4.En)	.	.	.	.	.	.
8EEL]	.	8EL]	.	.	.	.	.	.
(8FF	.	(8F	.	.	.	.	.	.
8.EE	.	8.E	.	.	.	.	.	.
16FFJk)	.	16FJk)	.	.	.	.	.	.
=94	=94	=94	=94	=94	=94	=94	=94	=94
(8AA	.	(8A	.	2r	.	2r	.	I64
4.GG)	.	4.G)	.	.	.	.	.	.
2r	.	2r	.	8.r	.	8.r	.	.
.	.	.	.	(16dKL	p	(16ddKL	p	.
.	.	.	.	8.c	.	8.cc	.	.
.	.	.	.	16dJk)	.	16ddJk)	.	.
=95	=95	=95	=95	=95	=95	=95	=95	=95
8.r	.	8.r	.	(8f	.	(8ff	.	.
.	.	.	.	[4.en)	.	[4.een)	.	I
(16CKL	.	(16c	.	.	.	.	.	.
8.BB	.	8.BL	.	.	.	.	.	.
16CJk)	.	16cJk)	.	.	.	.	.	.
(8EE	.	(8E	.	8eL]	.	8eeL]	.	I6
4.DD)	.	4.D)	.	(8f	.	(8ff	.	ii
.	.	.	.	8.e	.	8.ee	.	.
.	.	.	.	16fJk)	.	16ffJk)	.	.
=96	=96	=96	=96	=96	=96	=96	=96	=96
8.r	.	8.r	.	(8a	.	(8aa	.	.
.	.	.	.	[4.g)	.	[4.gg)	.	V64
(16EKL	.	(16e	.	.	.	.	.	.
8.D	.	8.dL	.	.	.	.	.	.
16EJk)	.	16eJk)	.	.	.	.	.	.
(8GG	.	(8G	.	8gL]	.	8ggL]	.	V
4.FF)	.	4.F)	.	(8a	.	(8aa	.	IV
.	.	.	.	8.g	.	8.gg	.	.
.	.	.	.	16aJk)	.	16aaJk)	.	.
=97	=97	=97	=97	=97	=97	=97	=97	=97
(8.FFL	>	(8.FL	>	(8.aL	>	(8.aaL	>	.
16GJk)	.	16B-XJk)	.	16cc#XJk)	.	16eeJk)	.	#viio43/ii
8G'L	] p	8B-'L	] p p	8cc#'L	]	8ee'L	] p	.
8F'J	.	8A'J	.	8dd'J	.	8ff'J	.	ii6
(8.EL	>	(8.GL	>	(8.eeL	>	(8.ggL	>	#viio65/ii
16FJk)	.	16A-XJk)	.	16bJk)	.	16ddJk)	.	viio43
8F'L	] p	8A-'L	] p p	8b'L	]	8dd'L	] p	.
8E'J	.	8G'J	.	8ccn'J	.	8ee'J	.	I6
=98	=98	=98	=98	=98	=98	=98	=98	=98
(8.DL	>	(8.FL	>	(8.fL	>	(8.ffL	>	ii
16eJk)	.	16gJk)	.	16cJk)	.	16aJk)	.	vi65
8e'L	] p	8g'L	] p	8c'L	]	8a'L	] p	.
8d'J	.	8f'J	.	8g'J	.	8b'J	.	V43
8c'L	pp	8e'L	pp	8a'L	.	8cc'L	pp	vi6
8B'	.	8d'	.	8b'	.	8dd'	.	viio
8A'	.	8c'	.	8cc'	.	8ee'	.	vi
8G'J	.	8B'J	.	8dd'J	.	8ff'J	.	V7
=99	=99	=99	=99	=99	=99	=99	=99	=99
!LO:TX:b:i:t=cresc.	!	!LO:TX:a:i:t=cresc.	!	!LO:TX:a:i:t=cresc.	!	!LO:TX:a:i:t=cresc.	!	!
(8.GL	.	1G	.	1c	.	1ee	.	I
16BBJk	.	.	.	.	.	.	.	.
8.CL	.	.	.	.	.	.	.	.
16DJk	.	.	.	.	.	.	.	.
4E	.	.	.	.	.	.	.	.
8.DL	.	.	.	.	.	.	.	.
16CJk)	.	.	.	.	.	.	.	.
=100	=100	=100	=100	=100	=100	=100	=100	=100
(4BB	.	1c	.	1cc	.	1eee	.	vi6
8.AAL	.	.	.	.	.	.	.	.
16BBJk	.	.	.	.	.	.	.	.
4C	.	.	.	.	.	.	.	.
8.BBL	.	.	.	.	.	.	.	.
16AAJk)	.	.	.	.	.	.	.	.
=101	=101	=101	=101	=101	=101	=101	=101	=101
(8AAL	.	(8BL	.	1b 1ee	.	1ggg	.	iii64
8GGJ)	.	8EJ)	.	.	.	.	.	.
(8.GGL	.	(8.EL	.	.	.	.	.	.
16AAJk	.	16F#XJk	.	.	.	.	.	.
4BB	.	4G	.	.	.	.	.	.
8.AAL	.	8.F#L	.	.	.	.	.	.
16GGJk)	.	16EJk)	.	.	.	.	.	.
=102	=102	=102	=102	=102	=102	=102	=102	=102
4AA'	f f	4E'	.	4cc' 4ee	f	4ggg'	f	v.iv7
4AA#X'	.	4E'	.	4cc#X' 4ee	.	4fff#X'	.	V65/V
4BB'	.	4B'	.	4f#X' 4ee	.	4fff#'	.	V(4)
4BB'	.	4B'	.	4f#' 4dd#X	.	4fff#'	.	V
=103	=103	=103	=103	=103	=103	=103	=103	=103
!	!LO:DY:a	!	!LO:DY:a	!	!	!	!	!
1DD#X	ff ff	1D#X	ff	1d#X	.	1d#X	ff	#viio
=104	=104	=104	=104	=104	=104	=104	=104	=104
!	!LO:DY:a	!	!	!	!	!	!	!
1EE	f f	1E	.	1e	f	1e	f	i
=105	=105	=105	=105	=105	=105	=105	=105	=105
1C	f	1e	f	1ee	f	1aa#X	f	.Ger6
=106	=106	=106	=106	=106	=106	=106	=106	=106
!LO:TX:b:t=f H	!	!LO:TX:b:t=f H	!	!LO:TX:b:t=f H	!	!LO:TX:b:t=f H	!	!
1BB	>]	1B 1f#X	>]	1f#X 1dd#X	>]	[1bb	>]	V
=107	=107	=107	=107	=107	=107	=107	=107	=107
(1d#X	p	[1f#X	p	(1B	p	8bbL]	.	.
.	.	.	.	.	.	(8gg#X	p	.
.	.	.	.	.	.	8aan	.	.
.	.	.	.	.	.	8bbJ	.	.
.	.	.	.	.	.	4ccc	.	.
.	.	.	.	.	.	8.bbL	.	.
.	.	.	.	.	.	16aaJk)	.	.
=108	=108	=108	=108	=108	=108	=108	=108	=108
1e	.	(4f#]	.	[1B)	.	(4aa	.	i64(94)
.	.	8.gL	.	.	.	2ggn	.	i64
.	.	16aJk	.	.	.	.	.	.
.	.	4b	.	.	.	.	.	.
.	.	8.aL	.	.	.	8.ff#XL	.	.
.	.	16gJk)	.	.	.	16eeJk)	.	.
=109	=109	=109	=109	=109	=109	=109	=109	=109
1cc	.	(4.g	.	1B]	.	(8eeL	.	V9
.	.	.	.	.	.	8dd#X	.	.
.	.	.	.	.	.	8.ee	.	.
.	.	8f#X	.	.	.	.	.	.
.	.	.	.	.	.	16ff#XJk	.	.
.	.	8eL	.	.	.	4gg	.	.
.	.	8b	.	.	.	.	.	.
.	.	8a	.	.	.	8.ff#L	.	.
.	.	8gJ)	.	.	.	.	.	.
.	.	.	.	.	.	16eeJk)	.	.
=110	=110	=110	=110	=110	=110	=110	=110	=110
!LO:TX:b:i:t=cresc.	!	!LO:TX:a:i:t=cresc.	!	!LO:TX:b:i:t=cresc.	!	!LO:TX:a:i:t=cresc.	!	!
2.b)	.	(4g	.	1B	.	(4ee	.	V(64)
.	.	2f#X	.	.	.	2.dd#X)	.	V
(8.f#XL	.	8.aL	.	.	.	.	.	.
16gJk)	.	16bJk)	.	.	.	.	.	.
=111||	=111||	=111||	=111||	=111||	=111||	=111||	=111||	=111||
*k[f#]	*	*k[f#]	*	*k[f#]	*	*k[f#]	*	*
4a	f	4cc	f	4A 4f#X	f	[2dd#X	f	#viio43
*clefF4	*	*	*	*	*	*	*	*
(8.AL	.	(8.cL	.	(8.f#L	.	.	.	.
16GJk	.	16BJk	.	16gJk	.	.	.	.
4F#	.	4A	.	4cc	.	2dd#]	.	#viio65
8.GL	.	8.BL	.	8.bL	.	.	.	.
16AJk)	.	16cJk)	.	16aJk)	.	.	.	.
=112	=112	=112	=112	=112	=112	=112	=112	=112
(4A	.	(4c	.	4g	.	1ee	.	V43(4)
2G	.	2B	.	(8.gL	.	.	.	.
.	.	.	.	16aJk)	.	.	.	.
.	.	.	.	[2b	.	.	.	.
4F#)	.	4A)	.	.	.	.	.	.
=113	=113	=113	=113	=113	=113	=113	=113	=113
4E	.	4G	.	4b]	.	1ccc	.	i6(+6)
(8.EEL	.	(8.GL	.	(8.gL	.	.	.	.
16FF#Jk	.	16AJk	.	16aJk	.	.	.	.
4GG	.	4B	.	4b	.	.	.	.
8.FF#L	.	8.AL	.	8.aL	.	.	.	.
16EEJk)	.	16GJk)	.	16gJk)	.	.	.	.
=114	=114	=114	=114	=114	=114	=114	=114	=114
(4EE	.	(4G	.	(4g	.	(2bb	.	V6
!	!	!	!	!LO:TX:a:i:t=dim.	!	!	!	!
2DD#X^)	.	2F#^	.	2f#^	.	.	.	.
!	!	!	!	!	!	!LO:TX:a:i:t=dim.	!	!
.	.	.	.	.	.	[2bb)	.	VI7
4r	.	4c)	.	4e)	.	.	.	.
=115	=115	=115	=115	=115	=115	=115	=115	=115
2r	.	(4c	.	(4e	.	1bb_	.	i
.	.	2B)	.	2d#X)	.	.	.	.
4r	.	.	.	.	.	.	.	.
4E	p	4G	p	4r	.	.	.	.
=116	=116	=116	=116	=116	=116	=116	=116	=116
(4E	.	(4G	.	2r	.	(2bb]	.	V6
2D#X	.	2F#	.	.	.	.	.	.
.	.	.	.	(4f#	pp	[2bb)	pp	viio6/VI
4Dn)	pp	4Fn)	pp	4fn	.	.	.	.
=117	=117	=117	=117	=117	=117	=117	=117	=117
(4C	.	(4E	.	4e	.	(2.bb]	.	V
2BB	.	2D#X	.	4d#X	.	.	.	.
.	.	.	.	4b	.	.	.	.
4AA)	.	4C)	.	4cc)	.	4ccc)	.	iv
=118	=118	=118	=118	=118	=118	=118	=118	=118
!LO:TX:b:i:t=cresc.	!	!LO:TX:b:i:t=cresc.	!	!LO:TX:b:i:t=cresc.	!	!LO:TX:b:i:t=cresc.	!	!
4GG'	.	4B'	.	4cc'	.	4ccc'	.	VI43
4FF#'	.	4A'	.	4d#X' 4cc	.	4ccc'	.	#viio65
4EE'	.	4G'	.	4e' 4cc	.	4ccc'	.	VI6
4DD#X'	.	4F#X'	.	4f#X' 4cc	.	4ccc'	.	#viio7
=119	=119	=119	=119	=119	=119	=119	=119	=119
4F#'	f	4d#X'	f	4a' 4cc	f	(16cccLL	f	#viio65
.	.	.	.	.	.	16bb	.	.
.	.	.	.	.	.	16aa	.	.
.	.	.	.	.	.	16cccJJ	.	.
4r	.	4r	.	4r	.	16aaLL	.	.
.	.	.	.	.	.	16gg	.	.
.	.	.	.	.	.	16ff#	.	.
.	.	.	.	.	.	16aaJJ	.	.
2r	.	2r	.	2r	.	16ff#LL	.	.
.	.	.	.	.	.	16ee	.	.
.	.	.	.	.	.	16dd#X	.	.
.	.	.	.	.	.	16ff#JJ	.	.
.	.	.	.	.	.	16ccLL	.	.
.	.	.	.	.	.	16b	.	.
.	.	.	.	.	.	16a	.	.
.	.	.	.	.	.	16ccJJ	.	.
=120	=120	=120	=120	=120	=120	=120	=120	=120
!	!	!	!	!	!	!LO:TX:a:i:t=dim.	!	!
2r	.	2r	.	2r	.	16aLL	.	.
.	.	.	.	.	.	16g	.	.
.	.	.	.	.	.	16f#	.	.
.	.	.	.	.	.	16aJJ	.	.
.	.	.	.	.	.	16d#XLL	.	.
.	.	.	.	.	.	16f#	.	.
.	.	.	.	.	.	16a	.	.
.	.	.	.	.	.	16ccJJ	.	.
4r	.	4r	.	4r	.	12dd#XL	.	.
.	.	.	.	.	.	12ff#	.	.
.	.	.	.	.	.	12aaJ	.	.
*clefC4	*	*	*	*	*	*	*	*
4f#'	p	4B' 4a	p	4dd#X'	p	8cccL	p	V7
.	.	.	.	.	.	8bbJ)	.	.
=121	=121	=121	=121	=121	=121	=121	=121	=121
4r	.	1r	.	2r	.	[1bb	.	i
(8.eL	.	.	.	.	.	.	.	.
16f#Jk	.	.	.	.	.	.	.	.
4g	.	.	.	2r	.	.	.	.
8.f#L	.	.	.	.	.	.	.	.
16eJk)	.	.	.	.	.	.	.	.
=122	=122	=122	=122	=122	=122	=122	=122	=122
(4e	.	1r	.	1r	.	2bb_	.	V6
2.d#X)	.	.	.	.	.	.	.	.
.	.	.	.	.	.	(8bbL]	.	.
.	.	.	.	.	.	8aa#XJ	.	.
.	.	.	.	.	.	12aanL)	.	.
.	.	.	.	.	.	12gg	.	.
.	.	.	.	.	.	12ff#J	.	.
=123	=123	=123	=123	=123	=123	=123	=123	=123
1r	.	1r	.	(1cc	p	(8ff#L	.	VI(4#2)
.	.	.	.	.	.	8dd#X	.	.
.	.	.	.	.	.	8ee	.	VI
.	.	.	.	.	.	8ff#J	.	.
.	.	.	.	.	.	4gg	.	.
.	.	.	.	.	.	8.ff#L	.	.
.	.	.	.	.	.	16eeJk)	.	.
=124	=124	=124	=124	=124	=124	=124	=124	=124
1r	.	1r	.	1b)	.	(4ee	.	V(4)
.	.	.	.	.	.	2dd#X)	.	V
.	.	.	.	.	.	(16ddnLL	.	.
.	.	.	.	.	.	16ccJ	.	.
.	.	.	.	.	.	8bJ)	.	.
=125	=125	=125	=125	=125	=125	=125	=125	=125
1r	.	1d#X	p	1f#	.	(4b	.	V6
.	.	.	.	.	.	8ddL	.	.
.	.	.	.	.	.	16ccL	.	.
.	.	.	.	.	.	16bJJ)	.	.
.	.	.	.	.	.	(8ccL	.	.
.	.	.	.	.	.	8aa#XJ	.	.
.	.	.	.	.	.	16bbLL	.	.
.	.	.	.	.	.	16aanJ	.	.
.	.	.	.	.	.	8ff#XJ)	.	.
=126	=126	=126	=126	=126	=126	=126	=126	=126
4r	.	(2.e	.	(2.g	.	(4aa	.	i(11)
!LO:TX:a:i:t=espressivo	!	!	!	!	!	!	!	!
(8gL	.	.	.	.	.	2gg)	.	i
16f#L	.	.	.	.	.	.	.	.
16d#XJJ	.	.	.	.	.	.	.	.
4f#	.	.	.	.	.	.	.	.
!	!	!	!	!	!	!LO:TX:a:i:t=espressivo	!	!
4e)	.	4f#	.	8aL	.	(8dddL	.	ii%2
.	.	.	.	8a#XJ)	.	16cccnL	.	.
.	.	.	.	.	.	16aa#XJJ	.	.
=127	=127	=127	=127	=127	=127	=127	=127	=127
4r	.	[2.g)	.	2.b	.	4ccc	.	i6(13)
*clefG2	*	*	*	*	*	*	*	*
(8bbL	.	.	.	.	.	[4bb)	.	i6
16aaL	.	.	.	.	.	.	.	.
16ff#JJ)	.	.	.	.	.	.	.	.
(8aa	.	.	.	.	.	8bbL]	.	.
4gg	.	.	.	.	.	(8dddJ	.	.
.	.	8gL]	.	4b	.	8fffnL	.	i6(2)
8gg#X)	.	8g#XJ	.	.	.	16eeeL	.	V64/iv
.	.	.	.	.	.	16bbJJ)	.	.
=128	=128	=128	=128	=128	=128	=128	=128	=128
4r	.	(2a	.	(2cc	.	(4dddn	.	iv(11)
(8aaL	.	.	.	.	.	[4ccc)	.	iv
8eeJ	.	.	.	.	.	.	.	.
!LO:TX:b:i:t=cresc.	!	!LO:TX:b:i:t=cresc.	!	!LO:TX:a:i:t=cresc.	!	!LO:TX:a:i:t=cresc.	!	!
2ffn)	.	2a)	.	2cc)	.	(8.cccL]	.	.bII6
.	.	.	.	.	.	16aaJk)	.	.
.	.	.	.	.	.	(8.aaL	.	.
.	.	.	.	.	.	16ffnJk)	.	.
=129	=129	=129	=129	=129	=129	=129	=129	=129
(8.FnL	f	(8.fnL	f	(8.fnL	f	(8.ffnL	f	.bII
16CJk)	.	16cJk)	.	16cJk)	.	16ccJk)	.	.
(8.CL	.	(8.cL	.	(8.cL	.	(8.ccL	.	.
16AAJk)	.	16AJk)	.	16AJk)	.	16aJk)	.	.
(8.AAL	.	(8.AL	.	(8.aL	.	(8.aL	.	.
16FFnJk)	.	16FnJk)	.	16fJk)	.	16fnJk)	.	.
(8.FFL	.	(8.FL	.	(8.fL	.	(8.fL	.	.
16EEJk)	.	16EJk)	.	16eJk)	.	16eJk)	.	.
=130	=130	=130	=130	=130	=130	=130	=130	=130
4DD#X'	.	4D#X'	.	4d#X'	.	4d#X'	.	#viio
4C'	.	4c'	.	4a'	.	4dd#X'	.	#vo2
4BB'	.	4B'	.	4g'	.	4ee'	.	i64
4AA#X'	.	4A#X'	.	4f#X' 4ee	.	(8eeeL	.	V65/V
!	!	!	!	!	!	!LO:TX:a:B:t=Adagio	!	!
.	.	.	.	.	.	8fff#XJ)	.	.
=131	=131	=131	=131	=131	=131	=131	=131	=131
1BB	p	1B	p	2e 2ee	p	(8gggL	p	V(64)
.	.	.	.	.	.	8bb	.	.
.	.	.	.	.	.	8eee	.	.
.	.	.	.	.	.	8gggJ	.	.
.	.	.	.	2g 2ee	.	4.bbb)	.	.
.	.	.	.	.	.	8gg	.	.
=132	=132	=132	=132	=132	=132	=132	=132	=132
!	!	!	!	!	!	!LO:TX:a:B:t=Allegro	!	!
(2.BB	<	(2.B	<	1dd#X	.	4ff#X	.	V
.	.	.	.	.	.	4r	.	.
.	.	.	.	.	.	2r	.	#viio
4FF#X)	[ > ]]	4F#X)	[ > ]]	.	.	.	.	.
=133	=133	=133	=133	=133	=133	=133	=133	=133
4EE	.	4E	.	(2.ddn	<	(2.dddn	<	V7/iv
4r	.	4r	.	.	.	.	.	.
2r	.	2r	.	.	.	.	.	.
.	.	.	.	4g#X)	[ > ]]	4gg#X)	[ > ]]	.
=134	=134	=134	=134	=134	=134	=134	=134	=134
(1BB-X	p	[1E [1G	p	1gn	p	4ggn	p	iv.#viio2
.	.	.	.	.	.	(8.c#XL	.	.
.	.	.	.	.	.	16dJk	.	.
.	.	.	.	.	.	4e	.	.
.	.	.	.	.	.	8.dL	.	.
.	.	.	.	.	.	16c#Jk)	.	.
=135	=135	=135	=135	=135	=135	=135	=135	=135
1AA)	.	(4E] 4G]	.	4r	.	4c#X	.	V7
.	.	2.Fn)	.	(8.ddL	.	2.d	.	V(64)
.	.	.	.	16eeJk	.	.	.	.
.	.	.	.	4ffn	.	.	.	.
.	.	.	.	8.eeL	.	.	.	.
.	.	.	.	16ddJk)	.	.	.	.
=136	=136	=136	=136	=136	=136	=136	=136	=136
[1AA	.	1B-X	.	(4dd	.	(4g	.	V9(4)
.	.	.	.	8.cc#XL	.	8.eL	.	V9
.	.	.	.	16ddJk	.	16fnJk	.	.
.	.	.	.	4ee	.	4g	.	.
.	.	.	.	8.ddL	.	8.fL	.	.
.	.	.	.	16cc#Jk)	.	16eJk)	.	.
=137	=137	=137	=137	=137	=137	=137	=137	=137
4AA]	.	2.A	.	(4ee	.	(4g	.	V7
(8.DL	.	.	.	2dd)	.	8.fnL	.	i
16EJk	.	.	.	.	.	16eJk	.	.
4Fn)	.	.	.	.	.	4d)	.	i6
(8.BB-XL	.	(8.FnL	.	(8.dL	.	[4dd	.	VI
16AAJk)	.	16GJk)	.	16eJk)	.	.	.	.
=138||	=138||	=138||	=138||	=138||	=138||	=138||	=138||	=138||
*k[]	*	*k[]	*	*k[]	*	*k[]	*	*
(4AA	.	(4G	.	(4e	.	(8ddL]	.	V7(4)
.	.	.	.	.	.	8cc#XJ)	.	V7
8.BB-XL	.	8.FL	.	8.dL	.	[4dd	.	VI
16AAJk)	.	16GJk)	.	16eJk)	.	.	.	.
(4AA	.	(4G	.	4e	.	(8ddL]	.	V7
.	.	.	.	.	.	8eeJ)	.	.
8.GL	.	4c#X)	.	(8.eL	.	(8.b-XL	.	#viio43
16EJk)	.	.	.	16gJk)	.	16aJk)	.	.
=139	=139	=139	=139	=139	=139	=139	=139	=139
(4G	.	(4c#X	.	(4e	.	(4a	.	V2
2F)	.	8.eL	.	8.cc#XL	.	8.b-XL	.	i6(#76)
.	.	16fJk)	.	16ddJk)	.	16aJk)	.	i6
.	.	4f	.	4dd	.	(4a	.	.
(8.EL	.	4r	.	(8.B-XL	.	8.ggL	.	#viio43
16C#XJk)	.	.	.	16AJk)	.	16eeJk)	.	.
=140	=140	=140	=140	=140	=140	=140	=140	=140
(4E	.	4r	.	(4A	.	(4gg	.	i(42)
2D)	.	(8.c#XL	.	8.B-XL	.	2ff)	.	i
.	.	16dJk)	.	16AJk)	.	.	.	.
.	.	4d	.	4A	.	.	.	.
(8.AAL	.	(8.AL	.	4d 4f	.	4ff	.	i64
16AA-XJk)	.	16A-XJk)	.	.	.	.	.	.
=141	=141	=141	=141	=141	=141	=141	=141	=141
1AA-X	f	1A-X 1f	f f	1d 1dd	.	(4ff	f	iii.iio64
.	.	.	.	.	.	8.ddL	.	.
.	.	.	.	.	.	16ee-XJk	.	.
.	.	.	.	.	.	4ff	.	.
.	.	.	.	.	.	8.ddL	.	.
.	.	.	.	.	.	16ccJk)	.	.
=142	=142	=142	=142	=142	=142	=142	=142	=142
1GG	>]	1G 1f	>]	4d 4dd	>	(4cc	>	V7(4)
.	.	.	.	(8.dL	.	2bn)	.	V7
.	.	.	.	16e-XJk	.	.	.	.
.	.	.	.	4f	.	.	.	.
.	.	.	.	8.dL	.	(8.eenL	.	.
.	.	.	.	16cJk)	]]	16ffJk)	]]	.
=143	=143	=143	=143	=143	=143	=143	=143	=143
1AA-X	f	1A-X 1f	f	(4c	f	(4ff	f	#viio2(2)
.	.	.	.	2Bn)	.	8.ddL	.	#viio2
.	.	.	.	.	.	16ee-XJk	.	.
.	.	.	.	.	.	4ff	.	.
.	.	.	.	8.BL	.	8.ddL	.	.
.	.	.	.	16cJk	.	16ccJk)	.	.
=144	=144	=144	=144	=144	=144	=144	=144	=144
1GG	>]	1G 1f	>]	4d 4dd	>	(4cc	>	V7(4)
.	.	.	.	(8.dL	.	2b	.	V7
.	.	.	.	16e-XJk	.	.	.	.
.	.	.	.	4f	.	.	.	.
.	.	.	.	8.dL	.	8.eenL	.	.
.	.	.	.	16cJk)	]]	16ffJk)	]]	.
=145	=145	=145	=145	=145	=145	=145	=145	=145
4r	.	4r	.	(4c	p	(8.ffL	p	III.I(4)
.	.	.	.	.	.	16ddJk	.	.
4G'	p	4Bn' 4d	p	8.BL	.	4ff')	.	V7
.	.	.	.	16f#XJk)	.	.	.	.
4r	.	4r	.	(4f#	.	4r	.	V7(#7)
4BBn'	.	4G' 4d	.	8.gL	.	4dd'	.	V65
.	.	.	.	16fnJk)	.	.	.	.
=146	=146	=146	=146	=146	=146	=146	=146	=146
4r	.	4r	.	(4f	.	4r	.	I(4)
4C	.	4G	.	4en)	.	(8.eeL	.	I
.	.	.	.	.	.	16eeeJk)	.	.
4r	.	4r	.	4r	.	(4eee	.	.
4E	.	4G	.	4g	.	8.dddL	.	I6(2)
.	.	.	.	.	.	16cccJk)	.	I6
=147	=147	=147	=147	=147	=147	=147	=147	=147
4r	.	4r	.	8r	.	(4ccc	.	V(4)
.	.	.	.	(16bLL	.	.	.	.
.	.	.	.	16ccJJ	.	.	.	.
4G	.	4B 4d	.	16ddLL	.	4bb)	.	V
.	.	.	.	16cc#X	.	.	.	.
.	.	.	.	16dd	.	.	.	.
.	.	.	.	16f#XJJ)	.	.	.	.
4r	.	4r	.	4g	.	8r	.	.
.	.	.	.	.	.	(16ff#XLL	.	.
.	.	.	.	.	.	16ggJJ	.	.
4B	.	4d	.	4g	.	16aaLL	.	V65
.	.	.	.	.	.	16gg#X	.	.
.	.	.	.	.	.	16aa	.	.
.	.	.	.	.	.	16ffnJJ)	.	.
=148	=148	=148	=148	=148	=148	=148	=148	=148
4r	.	4r	.	4r	.	(16ffLL	.	.
.	.	.	.	.	.	16dd#X	.	.
.	.	.	.	.	.	16ee	.	I
.	.	.	.	.	.	16ffJJ	.	.
4c	.	4e	.	4g	.	16ff#XLL	.	.
.	.	.	.	.	.	16ggn	.	.
.	.	.	.	.	.	16gg#X	.	.
.	.	.	.	.	.	16aaJJ	.	.
4r	.	4r	.	4r	.	16bb-XLL	.	.
.	.	.	.	.	.	16bbn	.	.
.	.	.	.	.	.	16ccc	.	.
.	.	.	.	.	.	16ccc#XJJ	.	.
4E	.	4c	.	4g 4ccn	.	16dddnLL	.	I6
.	.	.	.	.	.	16eee	.	.
.	.	.	.	.	.	16ddd	.	.
.	.	.	.	.	.	16cccnJJ)	.	.
=149	=149	=149	=149	=149	=149	=149	=149	=149
!LO:TX:a:i:t=cresc.	!	!LO:TX:a:i:t=cresc.	!	!LO:TX:b:i:t=cresc.	!	!LO:TX:b:i:t=cresc.	!	!
8FL	.	(16ccLL	.	(16aLL	.	(16cccLL	.	IV
.	.	16b	.	16g#X	.	16bb	.	.
8FF	.	16cc	.	16a	.	16ccc	.	.
.	.	16aJ)	.	16fnJJ)	.	16aJJ)	.	.
8F	.	8a'	.	8f'L	.	8aa'L	.	.
8FFJ	.	8a'J	.	8f'J	.	8aa'J	.	.
8FL	.	8aL	.	(16fLL	.	(16aaLL	.	ii
.	.	.	.	16e	.	16gg#X	.	.
8D	.	8D	.	16f	.	16aa	.	.
.	.	.	.	16dJJ)	.	16ffnJJ)	.	.
8d	.	8d	.	8f'L	.	8ff'L	.	.
8DJ	.	8DJ	.	8f'J	.	8ff'J	.	.
=150	=150	=150	=150	=150	=150	=150	=150	=150
8dL	.	(8dL	.	(16fLL	.	(16ffLL	.	.
.	.	.	.	16e	.	16ee	.	.
8BB	.	16ddL	.	16f	.	16ff	.	.
.	.	16bJJ)	.	16dJJ)	.	16ddnJJ)	.	.
8G	.	8b'L	.	8d'L	.	8dd'L	.	V
8GGJ	.	8b'J	.	8d'J	.	8dd'J	.	.
8GL	.	8bL	.	(16dLL	.	(16ddLL	.	.
.	.	.	.	16c#X	.	16cc#X	.	.
8GG	.	8BJ	.	16d	.	16dd	.	.
.	.	.	.	16BJJ)	.	16bJJ)	.	.
8G	.	8dd'L	.	8B'L	.	8b'L	.	.
!	!	!	!LO:DY:a	!	!	!	!	!
8FJ	f	8dd'J	f f	8A'J	.	8aa'J	f	i.iv6
=151	=151	=151	=151	=151	=151	=151	=151	=151
4F'	.	4d'	.	4a'	.	4aa'	.	.
4E'	.	[2E	fp	8g#X'	.	4bb'	.	V\\
.	.	.	.	16r	.	.	.	.
.	.	.	.	16b	p	.	.	.
2r	.	.	.	4ee'	.	2r	.	.
.	.	8.E]	.	4ee'	.	.	.	.
.	.	16e	.	.	.	.	.	.
=152	=152	=152	=152	=152	=152	=152	=152	=152
1r	.	4a'	.	(4.ee	.	4r	.	i
.	.	4a'	.	.	.	8.r	.	.
.	.	.	.	16ddLL	.	.	.	.
.	.	.	.	16ccnJJ)	.	16ccn	p	.
.	.	8a'L	.	8cc'L	.	4ff'	.	VI6
.	.	8a'J	.	8cc'J	.	.	.	.
.	.	(16aLL	.	(16ccLL	.	4ff'	.	.
.	.	16bJ	.	16ddJ	.	.	.	.
.	.	8aJ)	.	8ccJ)	.	.	.	.
=153	=153	=153	=153	=153	=153	=153	=153	=153
4r	.	(4a	.	(4cc	.	(4.ff	.	#viio7
8.r	.	4g#X)	.	8bL)	.	.	.	.
.	.	.	.	8b'J	.	16eeLL	.	.
16BB	pp	.	.	.	.	16ddJJ)	.	.
4E'	.	4r	.	8b'L	.	8dd'L	.	V7
.	.	.	.	8b'J	.	8dd'J	.	.
4E'	.	8.r	.	(16bLL	.	(16ddLL	.	.
.	.	.	.	16ccJ	.	16eeJ	.	.
.	.	.	.	8bJ)	.	8ddJ)	.	.
.	.	16e	p	.	.	.	.	.
=154	=154	=154	=154	=154	=154	=154	=154	=154
8EL	.	4ee'	.	8a'L	.	8cc'L	.	i64
8C	.	.	.	8gn'J	.	8cc'J	.	III
8C	.	4ee'	.	(16gLL	.	(16ccLL	.	.
.	.	.	.	16fJ	.	16bJ	.	.
8CJ	.	.	.	8eJ)	.	8ccJ)	.	.
8AAL	.	(8eeL	.	8g'L 8cc	.	(8eeeL	.	III.#viio6(2)/V
8A	.	16ddL	.	8g	.	16dddL	.	.
.	.	16ccJJ)	.	.	.	16cccJJ)	.	.
8A	.	(16ccLL	.	8g	.	(16cccLL	.	.
.	.	16ddJ	.	.	.	16dddJ	.	.
8AJ	.	8ccJ)	.	8f#XJ	.	8cccJ)	.	#viio6/V
=155	=155	=155	=155	=155	=155	=155	=155	=155
!LO:TX:b:i:t=cresc.	!	!LO:TX:b:i:t=cresc.	!	!LO:TX:b:i:t=cresc.	!	!LO:TX:b:i:t=cresc.	!	!
(8.GGL	.	(8.dL	.	(8.gL	.	(8.ccL	.	V7(4#2)
16FJk)	.	16GJk)	.	16dJk)	.	16a#XJk)	.	.
4r	.	(8.dL	.	(8.fnL	.	(8.bL	.	V7
.	.	16GJk)	.	16BJk)	.	16ddJk)	.	.
(8.GGL	.	(8.GL	.	(8.gL	.	(8.bL	.	V(64)
16EJk)	.	16CJk)	.	16GJk)	.	16ccJk)	.	.
4r	.	(8.eL	.	(8.gL	.	(8.ccL	.	.
.	.	16GJk)	.	16eJk)	.	16cc#XJk)	.	.
=156	=156	=156	=156	=156	=156	=156	=156	=156
(8.GGL	.	(8.fL	.	(8.gL	.	(8.cc#XL	.	V7
16BBJk)	.	16GJk)	.	16fJk)	.	16ddJk)	.	.
4r	.	(8.fL	.	(8.gL	.	(8.ddL	.	.
.	.	16GJk)	.	16fJk)	.	16dd#XJk)	.	.
(8.GGL	.	(8.cL	.	(8.gL	.	(8.dd#L	.	.
16CJk)	.	16GJk)	.	16cnJk)	.	16eeJk)	.	I
(8.B-XL	.	(8.gL	.	(8.ccL	.	(8.eeL	.	V2/IV
16AJk)	.	16cJk)	.	16fJk)	.	16ffJk)	.	IV6
=157	=157	=157	=157	=157	=157	=157	=157	=157
(8.AL	.	(8.fL	.	(8.ccL	.	(8.ffL	.	.
16A-XJk)	.	16cJk)	.	16f#XJk)	.	16ff#XJk)	.	.Ger6
(8.A-L	.	(8.cL	.	(8.ccL	.	(8.ff#L	.	.
16GJk)	.	16EJk)	.	16eJk)	.	16ggJk)	.	V(64)
(8.GL	.	(8.EL	.	(8.eL	.	(8.ggL	.	.
16EJk)	.	16B-XJk)	.	16b-XJk)	.	16gg#XJk)	.	viio(#3)/IV
(8.EL	.	(8.B-L	.	(8.b-L	.	(8.gg#L	.	.
16FJk)	.	16AJk)	.	16aJk)	.	16aanJk)	.	IV
=158	=158	=158	=158	=158	=158	=158	=158	=158
(8.FL	.	(8.AL	.	(8.aL	.	(8.aaL	.	.
16FFJk)	.	16A-XJk)	.	16dJk)	.	16bbJk)	.	viio43
(8.FFL	.	(8.A-L	.	(8.dL	.	(8.bbL	.	.
16FF#XJk)	.	16AnJk)	.	16e-XJk)	.	16cccnJk)	.	#viio7/V
(8.FF#L	f	(8.AL	f	(8.e-L	f	(8.cccL	f	.
16GGJk)	.	16GJk)	.	16enJk)	.	16ccJk)	.	V(64)
(8.GGL	>	(8.GL	>	(8.eL	>	(8.eeL	>	.
16GJk)	]]	16BJk)	]]	16fJk)	]]	16ddJk)	]]	V7
=159	=159	=159	=159	=159	=159	=159	=159	=159
!	!	!	!	!LO:TX:a:i:t=non legato	!	!	!	!
2r	.	4C	p	12r	.	1r	.	I
.	.	.	.	12aL	p	.	.	.
.	.	.	.	12gJ	.	.	.	.
.	.	12r	.	4c	.	.	.	.
.	.	12AL	.	.	.	.	.	.
.	.	12GJ	.	.	.	.	.	.
*clefC4	*	*	*	*	*	*	*	*
8r	.	4C	.	12r	.	.	.	.
.	.	.	.	12aL	.	.	.	.
!LO:TX:a:t=dolce	!	!	!	!	!	!	!	!
(8cL	p	.	.	.	.	.	.	.
.	.	.	.	12gJ	.	.	.	.
8d	.	12r	.	4c	.	.	.	.
.	.	12aL	.	.	.	.	.	.
8eJ)	.	.	.	.	.	.	.	.
.	.	12gJ	.	.	.	.	.	.
=160	=160	=160	=160	=160	=160	=160	=160	=160
(4..f	.	4G 4d	.	12r	.	2r	.	V7
.	.	.	.	12aL	.	.	.	.
.	.	.	.	12gJ	.	.	.	.
.	.	12r	.	4B	.	.	.	.
.	.	12cL	.	.	.	.	.	.
.	.	12BJ	.	.	.	.	.	.
16e)	.	.	.	.	.	.	.	.
(4d'	.	4G	.	12r	.	8r	.	.
.	.	.	.	12aL	.	.	.	.
.	.	.	.	.	.	(8ddL	p	.
.	.	.	.	12gJ	.	.	.	.
4d')	.	12r	.	4B	.	8ee	.	.
.	.	12cL	.	.	.	.	.	.
.	.	.	.	.	.	8ffJ)	.	.
.	.	12BJ	.	.	.	.	.	.
=161	=161	=161	=161	=161	=161	=161	=161	=161
(4f	.	4G	.	12r	.	(4ff	.	.
.	.	.	.	12aL	.	.	.	.
.	.	.	.	12gJ	.	.	.	.
8eL	.	12r	.	4c	.	8eeL	.	I64
.	.	12GL	.	.	.	.	.	.
8dJ	.	.	.	.	.	8ddJ	.	.
.	.	12FJ	.	.	.	.	.	.
4c	.	4E	.	12r	.	4cc	.	I6
.	.	.	.	12aL	.	.	.	.
.	.	.	.	12gJ	.	.	.	.
8dL	.	12r	.	4c	.	8ddL	.	.
.	.	12DL	.	.	.	.	.	.
8eJ)	.	.	.	.	.	8eeJ)	.	.
.	.	12CJ	.	.	.	.	.	.
=162	=162	=162	=162	=162	=162	=162	=162	=162
(4.d	.	4D 4B	.	12r	.	(4.dd	.	V43
.	.	.	.	12aL	.	.	.	.
.	.	.	.	12gJ	.	.	.	.
.	.	12r	.	4B	.	.	.	.
.	.	12cL	.	.	.	.	.	.
8g)	.	.	.	.	.	8b)	.	.
.	.	12BJ	.	.	.	.	.	.
(4.f#X	.	4D 4A	.	12r	.	(4.cc	.	V7/V
.	.	.	.	12gL	.	.	.	.
.	.	.	.	12f#XJ	.	.	.	.
.	.	12r	.	4c	.	.	.	.
.	.	12dL	.	.	.	.	.	.
8a)	.	.	.	.	.	8f#X)	.	.
.	.	12cJ	.	.	.	.	.	.
=163	=163	=163	=163	=163	=163	=163	=163	=163
(8aL	.	4G 4B	.	12r	.	8r	.	V\\
.	.	.	.	12aL	.	.	.	.
8g)	.	.	.	.	.	(8gL	.	V
.	.	.	.	12gJ	.	.	.	.
8g	.	12r	.	4B	.	8b	.	.
.	.	12GL	.	.	.	.	.	.
8gJ	.	.	.	.	.	8ddJ)	.	.
.	.	12FJ	.	.	.	.	.	.
8gL	.	4E	.	12r	.	(8ggL	.	.
.	.	.	.	12aL	.	.	.	.
8g	.	.	.	.	.	8gg	.	.
.	.	.	.	12gJ	.	.	.	.
8a	.	12r	.	4c	.	8aa	.	.
.	.	12dL	.	.	.	.	.	.
8b-XJ	.	.	.	.	.	8bb-XJ)	.	V7/IV
.	.	12cJ	.	.	.	.	.	.
=164	=164	=164	=164	=164	=164	=164	=164	=164
(4..b-X	<	4E	<	12r	<	(4..bb-X	<	V65/IV
.	.	.	.	12aL	.	.	.	.
.	.	.	.	12gJ	.	.	.	.
.	.	12r	.	4c	.	.	.	.
.	.	12dL	.	.	.	.	.	.
.	.	12cJ	.	.	.	.	.	.
16a)	.	.	.	.	.	16aa)	.	.
!LO:TX:b:i:t=piu cresc.	!	!LO:TX:b:i:t=piu cresc.	!	!LO:TX:b:i:t=piu cresc.	!	!LO:TX:b:i:t=piu cresc.	!	!
(4g#X'	[	4E	[	12r	[	(4gg#X'	[	V7/vi
.	.	.	.	12dL	.	.	.	.
.	.	.	.	12cJ	.	.	.	.
4g#')	.	12r	.	4c	.	4gg#')	.	.
.	.	12dL	.	.	.	.	.	.
.	.	12cJ	.	.	.	.	.	.
=165	=165	=165	=165	=165	=165	=165	=165	=165
!LO:TX:b:i:t=dim.	!	!LO:TX:b:i:t=dim.	!	!	!	!LO:TX:b:i:t=dim.	!	!
(4b-X	.	4F	.	12r	.	(4bb-X	.	IV(4)
!	!	!	!	!LO:TX:b:i:t=dim.	!	!	!	!
.	.	.	.	12ddL	.	.	.	.
.	.	.	.	12ccJ	.	.	.	.
8aL	.	12r	.	4fn	.	8aaL	.	IV
.	.	12dL	.	.	.	.	.	.
8gnJ	.	.	.	.	.	8ggnJ	.	.
.	.	12cJ	.	.	.	.	.	.
4fn	.	4F 4A	.	12r	.	4ffn	.	.
.	.	.	.	12ddL	.	.	.	.
.	.	.	.	12ccJ	.	.	.	.
8gL	.	12r	.	4f	.	8ggL	.	.
.	.	12dL	.	.	.	.	.	.
8aJ)	.	.	.	.	.	8aaJ)	.	.
.	.	12cJ	.	.	.	.	.	.
=166	=166	=166	=166	=166	=166	=166	=166	=166
!	!	!	!LO:DY:a	!	!	!LO:TX:b:t=p teneramente	!	!
(4.g	p	4G 4e	p p	12r	.	(4.gg	.	V(64)
.	.	.	.	12ddL	.	.	.	.
.	.	.	.	12ccJ	.	.	.	.
.	.	12r	.	4e	.	.	.	.
.	.	12dL	.	.	.	.	.	.
8e)	.	.	.	.	.	8ee)	.	.
.	.	12cJ	.	.	.	.	.	.
(4.f	.	4G	.	12r	.	(4.ff	.	V7
.	.	.	.	12ccL	.	.	.	.
.	.	.	.	12bJ	.	.	.	.
.	.	12r	.	4f	.	.	.	.
.	.	12eL	.	.	.	.	.	.
8Bn)	.	.	.	.	.	8bn)	.	.
.	.	12dJ	.	.	.	.	.	.
=167	=167	=167	=167	=167	=167	=167	=167	=167
(4.GG	.	(4.G	.	12r	.	(16eeLL	.	V(64)
.	.	.	.	.	.	16b	.	.
.	.	.	.	12ddL	.	.	.	.
.	.	.	.	.	.	16cc	.	.
.	.	.	.	12ccJ	.	.	.	.
.	.	.	.	.	.	16ddJJ	.	.
.	.	.	.	4e	.	16eeLL	.	.
.	.	.	.	.	.	16ff	.	.
8EE)	.	8E)	.	.	.	16ff#X	.	I6
.	.	.	.	.	.	16ggJJ	.	.
(8FFL	.	(8FL	.	12r	.	16aaLL	.	IV
.	.	.	.	.	.	16gg	.	.
.	.	.	.	12ccL	.	.	.	.
8DD	.	8D	.	.	.	16ff#	.	ii6
.	.	.	.	12bJ	.	.	.	.
.	.	.	.	.	.	16ggJJ	.	.
8F	.	8f	.	(8dL	.	16aaLL	.	.
.	.	.	.	.	.	16gg	.	.
8BBJ)	.	8BJ)	.	16ffL	.	16aa	.	viio7
.	.	.	.	16ddJJ)	.	16ffnJJ)	.	.
=168	=168	=168	=168	=168	=168	=168	=168	=168
4C	.	(8cL	.	(4cc	.	(4ee	.	I\\
.	.	16dL	.	.	.	.	.	.
.	.	16cJJ	.	.	.	.	.	.
*	*	*	*	*^	*	*	*	*
4r	.	8BL	.	4f	2.G	.	4dd	.	V7
.	.	16cL	.	.	.	.	.	.	.
.	.	16dJJ	.	.	.	.	.	.	.
(8cL	.	8eL	.	4e	.	.	4cc	.	I
16dL	.	16fL	.	.	.	.	.	.	.
16cJJ	.	16eJJ	.	.	.	.	.	.	.
8BL	.	8dL	.	4f)	.	.	4g)	.	V65
16cL	.	16eL	.	.	.	.	.	.	.
16dJJ)	.	16fJJ)	.	.	.	.	.	.	.
*	*	*	*	*v	*v	*	*	*	*
=169	=169	=169	=169	=169	=169	=169	=169	=169
(4e	.	(4g	.	4G	.	(8ccL	.	I64
.	.	.	.	.	.	16ddL	.	.
.	.	.	.	.	.	16ccJJ	.	.
4d	.	4f	.	(8gL	.	8bL	.	V43
.	.	.	.	16aL	.	16ccL	.	.
.	.	.	.	16bJJ	.	16ddJJ	.	.
4c	.	4e	.	8ccL	.	8eeL	.	I
.	.	.	.	16ddL	.	16ffL	.	.
.	.	.	.	16ccJJ	.	16eeJJ	.	.
4G)	.	4d)	.	8bL	.	8ddL	.	V7
.	.	.	.	16ccL	.	16eeL	.	.
.	.	.	.	16ddJJ)	.	16ffJJ)	.	.
=170	=170	=170	=170	=170	=170	=170	=170	=170
!LO:TX:b:i:t=cresc.	!	!	!	!LO:TX:b:i:t=cresc.	!	!LO:TX:b:i:t=cresc.	!	!
4r	.	8CL 8c	.	8eeL	.	[4gg	.	I
!	!	!LO:TX:b:i:t=cresc.	!	!	!	!	!	!
.	.	(16cL	.	[8eJ	.	.	.	.
.	.	16dJJ	.	.	.	.	.	.
4C	.	8eL	.	(16eLL]	.	8ggL]	.	.
.	.	.	.	16G	.	.	.	.
.	.	16fL	.	16e	.	(16ggL	.	.
.	.	16gJJ	.	16dJJ)	.	16ffJJ	.	.
4r	.	8aL)	.	8cL	.	[4ee)	.	.
.	.	(16aL	.	[8ccJ	.	.	.	.
.	.	16bJJ	.	.	.	.	.	.
4CC	.	[4cc)	.	(16ccLL]	.	8eeL]	.	.
.	.	.	.	16c	.	.	.	.
.	.	.	.	16cc	.	(16eeeL	.	.
.	.	.	.	16bJJ)	.	16dddJJ	.	.
=171	=171	=171	=171	=171	=171	=171	=171	=171
4r	.	(16ccLL]	.	8aL	.	[4ccc)	.	vi
.	.	16c	.	.	.	.	.	.
.	.	16d	.	[8aaJ	.	.	.	.
.	.	16eJJ)	.	.	.	.	.	.
4F	.	[4f	.	(16aaLL]	.	8cccL]	.	IV
.	.	.	.	16a	.	.	.	.
.	.	.	.	16aa	.	(16cccL	.	.
.	.	.	.	16ggJJ	.	16bbJJ	.	.
4r	.	(16fLL]	.	16ffLL	.	16aaLL	.	.
.	.	16d	.	16gg	.	16bb	.	.
.	.	16e	.	16ff	.	16aa	.	.
.	.	16fJJ	.	16eeJJ	.	16ggJJ	.	.
4GG	.	8g'L)	.	16ddLL	.	16ffLL	.	V7
.	.	.	.	16cc#X	.	16ee	.	.
.	.	8G'J	.	16dd	.	16ff	.	.
.	.	.	.	16bJJ)	.	16ddJJ)	.	.
=172	=172	=172	=172	=172	=172	=172	=172	=172
!	!	!	!	!	!	!LO:TX:b:i:t=dolce	!	!
!	!	!	!	!	!	!LO:TX:a:i:t=teneramente	!	!
!	!	!	!	!	!	!LO:TX:b:t=p	!	!
(8CCL	.	(4g	p	(4ee	p	[1gg	.	V6
16dL	p	.	.	.	.	.	.	.
16cJ	.	.	.	.	.	.	.	.
!LO:TX:a:i:t=dolce	!	!	!	!	!	!	!	!
!LO:TX:b:i:t=dolce	!	!	!	!LO:TX:b:i:t=dolce	!	!	!	!
8B	.	4f	.	4dd	.	.	.	.
16cL	.	.	.	.	.	.	.	.
16dJJ)	.	.	.	.	.	.	.	.
(8eL	.	8eL	.	4ccn	.	.	.	.
16fL	.	16dL	.	.	.	.	.	.
16eJJ	.	16cJJ	.	.	.	.	.	.
8dL	.	8BL	.	4g)	.	.	.	.
16eL	.	16cL	.	.	.	.	.	.
16fJJ)	.	16dJJ)	.	.	.	.	.	.
=173	=173	=173	=173	=173	=173	=173	=173	=173
(4e	.	(4G	.	(8ccL	.	4gg]	.	I64
.	.	.	.	16ddL	.	.	.	.
.	.	.	.	16ccJJ	.	.	.	.
4d	.	4F	.	8bL	.	(8ggL	.	V2
.	.	.	.	16ccL	.	16aaL	.	.
.	.	.	.	16ddJJ	.	16bbJJ	.	.
4c	.	4E	.	8eeL	.	4ccc	.	I6
.	.	.	.	16ffL	.	.	.	.
.	.	.	.	16eeJJ	.	.	.	.
8.GL	.	8FL	.	8ddL	.	8bbL	.	V2
.	.	16EL	.	16eeL	.	16cccL	.	.
16ddJk)	.	16DJJ)	.	16ffJJ)	.	16dddJJ)	.	.
=174	=174	=174	=174	=174	=174	=174	=174	=174
!LO:TX:b:i:t=cresc.	!	!LO:TX:b:i:t=cresc.	!	!LO:TX:b:i:t=cresc.	!	!LO:TX:a:i:t=cresc.	!	!
(8EL	.	(8CL	.	8ggL	.	[4eee	.	I
*clefF4	*	*	*	*	*	*	*	*
16CL	.	16EL	.	[8gJ	.	.	.	.
16DJJ	.	16FJJ	.	.	.	.	.	.
8EL	.	8GL	.	(16gLL]	.	8eeeL]	.	I6
.	.	.	.	16G	.	.	.	.
16FL	.	16AL	.	16g	.	(16eeeL	.	.
16GJJ	.	16BJJ	.	16fJJ)	.	16dddJJ	.	.
8AL)	.	8cL)	.	8eL	.	[4ccc)	.	vi
(16AL	.	(16cL	.	[8eeJ	.	.	.	.
16BJJ	.	16dJJ	.	.	.	.	.	.
[4c)	.	[4e)	.	(16eeLL]	.	8cccL]	.	I
.	.	.	.	16e	.	.	.	.
.	.	.	.	16ee	.	(16cccL	.	.
.	.	.	.	16ddJJ)	.	16bbJJ	.	.
=175	=175	=175	=175	=175	=175	=175	=175	=175
(8cL]	.	(8eL]	.	(8ccL	.	(8aaL)	.	vi6
16dL	.	16fL	.	[8aJ)	.	[8ccJ)	.	.
16eJJ	.	16gJJ	.	.	.	.	.	.
[4f)	.	[4a)	.	16aLL]	.	16ccLL]	.	IV
.	.	.	.	(16A	.	(16c	.	.
.	.	.	.	16a	.	16cc	.	.
.	.	.	.	16gJJ)	.	16bJJ)	.	.
!	!	!LO:TX:b:i:t=non legato	!	!	!	!LO:TX:b:i:t=non legato	!	!
8fL]	.	8aL]	.	16fLL	.	16aLL	.	.
.	.	.	.	16gg	.	16b	.	.
8FF	.	8A	.	16ff	.	16a	.	.
.	.	.	.	16eeJJ	.	16gJJ	.	.
8F	.	8A	.	16ddLL	.	16fLL	.	.
.	.	.	.	16cc	.	16e	.	.
8FJ	.	8AJ	.	16b	.	16d	.	.
.	.	.	.	16aJJ	.	16cJJ	.	.
=176	=176	=176	=176	=176	=176	=176	=176	=176
16FLL	f	16dLL	f	16gLL	f	16BLL	f	V2
!LO:TX:b:i:t=non legato	!	!LO:TX:b:i:t=non legato	!	!	!	!	!	!
16E	.	16c	.	16a	.	16c	.	.
16D	.	16B	.	16b	.	16d	.	.
16CJJ	.	16AJJ	.	16ccJJ	.	16eJJ	.	.
16BBLL	.	16GLL	.	16ddLL	.	16fLL	.	.
16C	.	16A	.	16cc	.	16e	.	.
16D	.	16B	.	16b	.	16d	.	.
16EJJ	.	16cJJ	.	16aJJ	.	16cJJ	.	.
16FLL	.	16dLL	.	16gLL	.	16BLL	.	.
16E	.	16c	.	16a	.	16c	.	.
16D	.	16B	.	16b	.	16d	.	.
16CJJ	.	16AJJ	.	16ccJJ	.	16eJJ	.	.
16BBLL	.	16GLL	.	16ddLL	.	16fLL	.	.
16AA	.	16F	.	16ee	.	16g	.	.
16GG	.	16E	.	16ff	.	16a	.	.
16FFJJ	.	16DJJ	.	16ggJJ	.	16bJJ	.	.
=177	=177	=177	=177	=177	=177	=177	=177	=177
16EELL	.	16CLL	.	4gg	.	4cc	.	I6
16FF	.	16D	.	.	.	.	.	.
16GG	.	16E	.	.	.	.	.	.
16AAJJ	.	16FJJ	.	.	.	.	.	.
16BBLL	.	16GLL	.	4r	.	4r	.	.
16C	.	16A	.	.	.	.	.	.
16D	.	16B	.	.	.	.	.	.
16EJJ	.	16cJJ	.	.	.	.	.	.
[2AA	ff	[2F#X	ff	16cccLL	ff	16ddLL	ff	V43/V
.	.	.	.	16bb	.	16ee	.	.
.	.	.	.	16aa	.	16ff#X	.	.
.	.	.	.	16ggJJ	.	16ggJJ	.	.
.	.	.	.	16ff#XLL	.	16aaLL	.	.
.	.	.	.	16ee	.	16bb	.	.
.	.	.	.	16dd	.	16ccc	.	.
.	.	.	.	16ccJJ	.	16dddJJ	.	.
=178	=178	=178	=178	=178	=178	=178	=178	=178
4AA]	p	4F#]	p	4cc	p	(16dddLL	p	.
.	.	.	.	.	.	16ccc	.	.
.	.	.	.	.	.	16bb	.	.
.	.	.	.	.	.	16cccJJ	.	.
(4AA	.	(4F#X	.	(4d 4cc	.	16bbLL	.	.
.	.	.	.	.	.	16ccc	.	.
.	.	.	.	.	.	16bb	.	.
.	.	.	.	.	.	16aaJJ)	.	.
4BB	.	4G	.	4d	.	(16aaLL	.	V6
.	.	.	.	.	.	16gg	.	.
.	.	.	.	.	.	16ff#X	.	.
.	.	.	.	.	.	16ggJJ)	.	.
4D	.	4Fn	.	4B) 4g	.	(16ggLL	.	V43
.	.	.	.	.	.	16ffn	.	.
.	.	.	.	.	.	16ee	.	.
.	.	.	.	.	.	16ddJJ)	.	.
=179	=179	=179	=179	=179	=179	=179	=179	=179
4E)	.	4G)	.	4c 4g	.	(16ddLL	.	I6
.	.	.	.	.	.	16cc	.	.
.	.	.	.	.	.	16b	.	.
.	.	.	.	.	.	16ccJJ	.	.
4r	.	(4f#X	.	(4ff#X	.	16bLL	.	#viio/V
.	.	.	.	.	.	16cc	.	.
.	.	.	.	.	.	16b	.	.
.	.	.	.	.	.	16aJJ)	.	.
*^	*	*	*	*	*	*	*	*
(4E	2GG	.	4g	.	4gg	.	(16aLL	.	V(64)
.	.	.	.	.	.	.	16g	.	.
.	.	.	.	.	.	.	16f#X	.	.
.	.	.	.	.	.	.	16gJJ)	.	.
4D)	.	.	4b)	.	4bb)	.	(16gLL	.	V7
.	.	.	.	.	.	.	16fn	.	.
.	.	.	.	.	.	.	16e	.	.
.	.	.	.	.	.	.	16dJJ)	.	.
*v	*v	*	*	*	*	*	*	*	*
=180	=180	=180	=180	=180	=180	=180	=180	=180
(16DLL	.	(16ddLL	.	(16dddLL	.	4c	.	I\\
16C	.	16cc	.	16ccc	.	.	.	.
16BB	.	16b	.	16bb	.	.	.	.
16CJJ	.	16ccJJ	.	16cccJJ	.	.	.	.
!LO:TX:b:i:t=cresc.	!	!LO:TX:b:i:t=cresc.	!	!LO:TX:b:i:t=cresc.	!	!LO:TX:b:i:t=cresc.	!	!
16BBLL	.	16bLL	.	16bbLL	.	(4ff#X	.	#viio6/V
16C	.	16cc	.	16ccc	.	.	.	.
16BB	.	16b	.	16bb	.	.	.	.
16AAJJ)	.	16aJJ)	.	16aaJJ)	.	.	.	.
(16AALL	.	(16aLL	.	(16aaLL	.	4gg	.	V
16GG	.	16g	.	16gg	.	.	.	.
16FF#X	.	16f#X	.	16ff#X	.	.	.	.
16GGJJ)	.	16gJJ)	.	16ggJJ)	.	.	.	.
(16GGLL	.	(16gLL	.	(16ggLL	.	4bb)	.	V2
16FFn	.	16fn	.	16ffn	.	.	.	.
16EE	.	16e	.	16ee	.	.	.	.
16DDJJ)	.	16dJJ)	.	16ddJJ)	.	.	.	.
=181	=181	=181	=181	=181	=181	=181	=181	=181
(16FFLL	.	(16fLL	.	(16ffLL	.	(16bbLL	.	I6
16EE	.	16e	.	16ee	.	16ccc	.	.
16DD	.	16d	.	16dd	.	16ddd	.	.
16CCJJ)	.	16cJJ)	.	16ccJJ)	.	16eeeJJ)	.	I
(16CLL	.	(16cLL	.	(16ccLL	.	(16eeLL	.	.
16BB	.	16B	.	16b	.	16ffn	.	.
16AA	.	16A	.	16a	.	16gg	.	.
16GGJJ)	.	16GJJ)	.	16gJJ)	.	16aaJJ)	.	.
4G	.	(16cLL	.	(16eLL	.	(16ggLL	.	V(64)
.	.	16B	.	16f	.	16aa	.	.
.	.	16A	.	16g	.	16bb	.	.
.	.	16GJJ	.	16aJJ	.	16cccJJ	.	.
4GG	.	16FLL	.	16bLL	.	16dddLL	.	V7
.	.	16E	.	16cc	.	16eee	.	.
.	.	16D	.	16dd	.	16fff	.	.
.	.	16dJJ)	.	16ffJJ)	.	16bbJJ)	.	.
=182	=182	=182	=182	=182	=182	=182	=182	=182
(8.CL	f	(8.GL	f	(8.eeL	f	(8.cccL	f	I\\
16DJk)	.	16FJk)	.	16fJk)	.	16bbJk)	.	viio65
(8.FL	.	(8.FL	.	(8.bL	.	(8.aa-XL	.	.
16A-XJk)	.	16A-XJk)	.	16dJk)	.	16ffJk)	.	.
(8.BL	.	(8.fL	.	(8.a-XL	.	(8.ddL	.	viio7
16dJk)	.	16dJk)	.	16fJk)	.	16bJk)	.	.
(8.BL	.	(8.fL	.	(8.ddL	.	(8.aa-L	.	.
16cJk)	.	16eJk)	.	16eeJk)	.	16ggJk)	.	I
=183	=183	=183	=183	=183	=183	=183	=183	=183
(2FF#X	p	(2c	p	(2e-X	p	(2an	p	#viio7/V
2GG)	.	2D)	.	2B)	.	2g)	.	V
=184	=184	=184	=184	=184	=184	=184	=184	=184
(8.CL	f	(8.EL	f	(8.enL	f	(8.gL	f	I
16BBJk)	.	16DJk)	.	16fJk)	.	16a-XJk)	.	viio7
(8.AA-XL	.	(8.FL	.	(8.dL	.	(8.bL	.	.
16FFJk)	.	16DJk)	.	16fJk)	.	16ddJk)	.	.
(8.DDL	.	(8.A-XL	.	(8.fL	.	(8.ffL	.	viio65
16BBJk)	.	16FJk)	.	16a-XJk)	.	16dddJk)	.	.
(8.A-XL	.	(8.FL	.	(8.ddL	.	(8.bbL	.	viio2
16GJk)	.	16EJk)	.	16ccJk)	.	16cccJk)	.	I64
=185	=185	=185	=185	=185	=185	=185	=185	=185
(2An	p	(2e-X	p	(2cc	p	(2ff#X	p	#viio65/V
2G)	.	2cc)	.	2c) 2en	.	2gg)	.	I64
=186	=186	=186	=186	=186	=186	=186	=186	=186
!	!	!	!	!	!	!LO:TX:a:t=rit.	!	!
(2F#X	.	2cc	.	2e-X	.	[2aan	.	#viio7/V
2G)	.	2F 2d	.	2b	.	(8aaL]	.	V7(9)
.	.	.	.	.	.	8b	.	.
.	.	.	.	.	.	8aa	.	.
.	.	.	.	.	.	8ggJ)	.	.
=187	=187	=187	=187	=187	=187	=187	=187	=187
!LO:TX:b:i:t=cresc.	!	!LO:TX:b:i:t=cresc.	!	!LO:TX:b:i:t=cresc.	!	!LO:TX:a:i:t=cresc.	!	!
2FF#X	.	2E-X	.	2c	.	[2aa	.	#viio7/V
2GG	.	2D 2F	.	2f 2b	.	8aaL]	.	V7(9)
.	.	.	.	.	.	(8G	.	.
.	.	.	.	.	.	8fn	.	V7
.	.	.	.	.	.	8dJ)	.	.
=188	=188	=188	=188	=188	=188	=188	=188	=188
!	!	!	!	!	!	!LO:TX:a:B:t=a tempo	!	!
8C	p	8E 8Gn	p	8c	p	8e	p	I\\
8r	.	8r	.	8r	.	8r	.	.
8AA	.	8D	.	8c	.	8f#X	.	V43/V
8r	.	8r	.	8r	.	8r	.	.
8GG	.	8E	.	8c	.	8g	.	V(64)
8r	.	8r	.	8r	.	8r	.	.
8GG	f	8F	f	8d	f	8b	f	V7
8r	.	8r	.	8r	.	8r	.	.
=189	=189	=189	=189	=189	=189	=189	=189	=189
4r	.	4r	.	4r	.	4r	.	.
4GG#X	p	4F	p	4d	p	4b	p	i.#viio7
2r	.	2r	.	2r	.	2r	.	.
=190	=190	=190	=190	=190	=190	=190	=190	=190
4r	.	4r	.	4r	.	4r	.	.
8GG#X	.	8F	.	8d	.	8b	.	.
8r	.	8r	.	8r	.	8r	.	.
8AA	.	8E	.	8c	.	8cc	.	i
8r	.	8r	.	8r	.	8r	.	.
8Gn	f	8B-X	f	8en	f	8cc#X	f	#viio43/iv
8r	.	8r	.	8r	.	8r	.	.
=191	=191	=191	=191	=191	=191	=191	=191	=191
4r	.	4r	.	4r	.	4r	.	.
4g	p	4G 4B-X	p	4b-X	p	4cc#X	p	.
2r	.	2r	.	2r	.	2r	.	.
=192	=192	=192	=192	=192	=192	=192	=192	=192
!LO:TX:b:i:t=cresc.	!	!LO:TX:b:i:t=cresc.	!	!LO:TX:b:i:t=cresc.	!	!LO:TX:b:i:t=cresc.	!	!
8G	.	8b-X	.	8e	.	8cc#X	.	.
8r	.	8r	.	8r	.	8r	.	.
8F#X	.	8a	.	8A	.	8dd	.	IV6
8r	.	8r	.	8r	.	8r	.	.
8Fn	.	8A	.	8a	.	8dd#X	.	.Ger6
8r	.	8r	.	8r	.	8r	.	.
8E	.	8Bn	.	8g#X	.	8ee	.	V
8r	.	8r	.	8r	.	8r	.	.
=193	=193	=193	=193	=193	=193	=193	=193	=193
(1GG#X	p	(1B	p	(1dd	p	(1ff	p	#viio7
=194	=194	=194	=194	=194	=194	=194	=194	=194
1AA)	.	1c)	.	[1cc)	.	1ee)	.	i
=195	=195	=195	=195	=195	=195	=195	=195	=195
(1F	.	(2c	.	(4cc]	.	(1d#X	p	.Ger6
.	.	.	.	8.aL	.	.	.	.
.	.	.	.	16bnJk	.	.	.	.
.	.	4A	.	4cc	.	.	.	.
.	.	4B)	.	8.bL	.	.	.	.
.	.	.	.	16aJk)	.	.	.	.
=196	=196	=196	=196	=196	=196	=196	=196	=196
1E)	.	(4c	.	(4a	.	1e)	.	V
.	.	2B	.	2g#X	.	.	.	.
.	.	4E)	.	4G#X)	.	.	.	.
=197	=197	=197	=197	=197	=197	=197	=197	=197
(1D#X	.	4r	.	1A	.	1r	.	#viio/V
.	.	(8.FL	.	.	.	.	.	.
.	.	16GJk	.	.	.	.	.	.
.	.	4A	.	.	.	.	.	.
.	.	8.GL	.	.	.	.	.	.
.	.	16FJk)	.	.	.	.	.	.
=198	=198	=198	=198	=198	=198	=198	=198	=198
1E)	.	(4F	.	2G#X	.	1r	.	V(6)
.	.	2E)	.	.	.	.	.	.
.	.	.	.	[2cc	.	.	.	.
.	.	(4g#X	.	.	.	.	.	.
=199	=199	=199	=199	=199	=199	=199	=199	=199
(1F	.	4a	.	(4cc]	.	(1dd#X	.	.Ger6
.	.	8.ccL	.	8.aL	.	.	.	.
.	.	16bJk	.	16bJk	.	.	.	.
.	.	4a	.	4cc	.	.	.	.
.	.	8.bL	.	8.bL	.	.	.	.
.	.	16ccJk)	.	16aJk)	.	.	.	.
=200	=200	=200	=200	=200	=200	=200	=200	=200
1E	.	(4cc	.	(4a	.	1ee)	.	V
.	.	2b)	.	2g#X)	.	.	.	.
.	.	(8.BL	.	(8.g#L	.	.	.	.
.	.	16EJk)	.	16BJk)	.	.	.	.
=201	=201	=201	=201	=201	=201	=201	=201	=201
1GG#X	.	(4F	.	(4B	.	(4dddn	.	#viio7
.	.	8.DL	.	8.dL	.	8.bbL	.	.
.	.	16EJk	.	16cJk	.	16cccJk	.	.
.	.	4F	.	4B	.	4ddd	.	.
.	.	8.EL	.	8.cL	.	8.cccL	.	.
.	.	16DJk)	.	16dJk)	.	16bbJk)	.	.
=202	=202	=202	=202	=202	=202	=202	=202	=202
!LO:TX:b:i:t=cresc.	!	!LO:TX:b:i:t=cresc.	!	!LO:TX:b:i:t=cresc.	!	!LO:TX:b:i:t=cresc.	!	!
1AA)	.	(4F	.	(4B	.	(4ddd	.	i(116+2)
.	.	4E	.	8.cL	.	2ccc	.	i
.	.	.	.	16dJk	.	.	.	.
.	.	4c	.	4e	.	.	.	.
.	.	8.BL	.	8.dL	.	8.dddL	.	.
.	.	16AJk)	.	16cJk)	.	16eeeJk)	.	.
=203	=203	=203	=203	=203	=203	=203	=203	=203
4AA	f	4C	f	4c	f	1fff	f	VI6
(8.AL	.	(8.cL	.	(8.ccL	.	.	.	.
16BJk	.	16dJk	.	16bJk	.	.	.	.
4c	.	4e	.	4a	.	.	.	.
8.BL	.	8.dL	.	8.bL	.	.	.	.
16AJk)	.	16cJk)	.	16ccJk)	.	.	.	.
=204	=204	=204	=204	=204	=204	=204	=204	=204
(4A	.	(4c	.	4r	.	1eee	.	V65
2G#X	.	2B	.	(8.ddL	.	.	.	.
.	.	.	.	16ccJk	.	.	.	.
.	.	.	.	4b	.	.	.	.
8.FL	.	8.AL	.	8.ccL	.	.	.	.
16EJk)	.	16G#XJk)	.	16ddJk)	.	.	.	.
=205	=205	=205	=205	=205	=205	=205	=205	=205
(4E	.	(4G#X	.	4dd	.	1gg#X	.	V7
8.FL	.	8.AL	.	2B 2d	.	.	.	.
16EJk)	.	16G#Jk)	.	.	.	.	.	.
(4E	.	(4G#	.	.	.	.	.	.
8.dL	.	8.fL	.	(8.bL	.	.	.	.
16BJk)	.	16dJk)	.	16g#XJk)	.	.	.	.
=206	=206	=206	=206	=206	=206	=206	=206	=206
(4d	>	(4f	>	(4b	>	[1aa	>]	i6
2c)	.	2e)	.	2a)	.	.	.	.
4r	]]	4b	]]	(8.ffL	.	.	.	.
.	.	.	.	16dd#XJk)	]]	.	.	.
=207	=207	=207	=207	=207	=207	=207	=207	=207
1r	.	(2.cc	p	(4ff	p	4aa]	.	i6(6)
.	.	.	.	2ee)	.	(8.bb-XL	p	i6(#7b2)
.	.	.	.	.	.	16gg#XJk	.	.
.	.	.	.	.	.	4bb-	.	.
.	.	4ee)	.	4c#X	.	8.aaL	.	V6/iv
.	.	.	.	.	.	16eeJk)	.	.
=208	=208	=208	=208	=208	=208	=208	=208	=208
1r	.	4r	.	1dn	.	(4ggn	.	iv(4)
!	!	!LO:TX:b:i:t=espressivo	!	!	!	!	!	!
.	.	(8.aL	.	.	.	2ff)	.	VII43
.	.	16eJk)	.	.	.	.	.	.
.	.	(4gn	.	.	.	.	.	.
!	!	!	!	!	!	!LO:TX:a:i:t=espressivo	!	!
.	.	4f)	.	.	.	(8.bb-XL	.	.bII6
.	.	.	.	.	.	16ffJk)	.	.
=209	=209	=209	=209	=209	=209	=209	=209	=209
4r	.	2r	.	1e	.	(4aa	.	III(762)
*clefC4	*	*	*	*	*	*	*	*
!LO:TX:a:i:t=espressivo	!	!	!	!	!	!	!	!
(8.gL	.	.	.	.	.	2gg)	.	.
16BJk)	.	.	.	.	.	.	.	.
(4d	.	4r	.	.	.	.	.	.
4c)	.	4E	.	.	.	(8.cccL	.	III6
.	.	.	.	.	.	16ggJk)	.	.
=210	=210	=210	=210	=210	=210	=210	=210	=210
!	!	!LO:TX:b:i:t=cresc.	!	!LO:TX:b:i:t=cresc.	!	!LO:TX:a:i:t=cresc.	!	!
4r	.	2F	.	2f	.	(4..bb-X	.	VI(4)
!LO:TX:b:i:t=cresc.	!	!	!	!	!	!	!	!
(8.CL	.	.	.	.	.	.	.	.
16FFJk)	.	.	.	.	.	16aa)	.	VI
4r	.	2E	.	2e	.	(4..bbn	.	i64(2)
(8.CL	.	.	.	.	.	.	.	.
16EEJk)	.	.	.	.	.	16aa)	.	i64
=211	=211	=211	=211	=211	=211	=211	=211	=211
4r	.	2D	.	2d	.	(4..bb	.	iv7(6)
(8.CL	.	.	.	.	.	.	.	.
16DDJk)	.	.	.	.	.	16aa)	.	iv7
4r	.	2D#X	.	2d#X	.	(4..bb	.	V6/V
(8.CL	.	.	.	.	.	.	.	.
16DD#XJk)	.	.	.	.	.	16aa)	.	V65/V
=212	=212	=212	=212	=212	=212	=212	=212	=212
4FF'	sf	4F'	sf	4f'	sf	(16bbLL	sf	VI
.	.	.	.	.	.	16aa	.	.
.	.	.	.	.	.	16bb	.	.
.	.	.	.	.	.	16aaJJ	.	.
4EE'	.	4E'	.	4e'	.	16bbLL	.	v(4)
.	.	.	.	.	.	16aa	.	.
.	.	.	.	.	.	16bb	.	.
.	.	.	.	.	.	16aaJJ)	.	.
4Dn'	.	4Dn'	.	4dn'	.	(16bbLL	.	iv
.	.	.	.	.	.	16aa	.	.
.	.	.	.	.	.	16bb	.	.
.	.	.	.	.	.	16aaJJ	.	.
4C'	.	4C' 4c	.	4cc'	.	16bbLL	.	i6
.	.	.	.	.	.	16aa	.	.
.	.	.	.	.	.	16bb	.	.
.	.	.	.	.	.	16aaJJ)	.	.
=213	=213	=213	=213	=213	=213	=213	=213	=213
4BB'	f	4B'	f	4b'	f	(16bbLL	f	ii7
.	.	.	.	.	.	16aa	.	.
.	.	.	.	.	.	16bb	.	.
.	.	.	.	.	.	16aaJJ	.	.
4AA'	.	4A'	.	4a'	.	16bbLL	.	i
.	.	.	.	.	.	16aa	.	.
.	.	.	.	.	.	16bb	.	.
.	.	.	.	.	.	16aaJJ)	.	.
4GGn'	.	4Gn'	.	4gn'	.	(16bbLL	.	VII
.	.	.	.	.	.	16aa	.	.
.	.	.	.	.	.	16bb	.	.
.	.	.	.	.	.	16aaJJ	.	.
4FF'	.	4F'	.	4f'	.	16bbLL	.	VI
.	.	.	.	.	.	16aa	.	.
.	.	.	.	.	.	16bb	.	.
.	.	.	.	.	.	16aaJJ)	.	.
=214	=214	=214	=214	=214	=214	=214	=214	=214
4EE'	.	[2E	p	4G#X'	.	4bb'	.	V\\
8.r	.	.	.	4r	.	4r	.	V
16B	p	.	.	.	.	.	.	.
4e'	.	4..E]	.	2r	.	2r	.	.
4e'	.	.	.	.	.	.	.	.
.	.	16G#X	.	.	.	.	.	.
=215	=215	=215	=215	=215	=215	=215	=215	=215
(4.e	.	(4.c	.	4r	.	1r	.	VI6
.	.	.	.	8.r	.	.	.	.
16dLL	.	16BLL	.	.	.	.	.	.
16cJJ)	.	16AJJ)	.	16cc	p	.	.	.
8c'L	.	8A'L	.	4ff'	.	.	.	.
8c'J	.	8A'J	.	.	.	.	.	.
(16cLL	.	(16ALL	.	4ff'	.	.	.	.
16dJ	.	16BJ	.	.	.	.	.	.
8cJ)	.	8AJ)	.	.	.	.	.	.
=216	=216	=216	=216	=216	=216	=216	=216	=216
(4c	.	(4A	.	(4.ff	.	4r	.	.
4B)	.	4G#X)	.	.	.	8.r	.	#viio7
.	.	.	.	16eeLL	.	.	.	.
.	.	.	.	16ddJJ)	.	16bb	p	.
8B'L	.	4r	.	8dd'L	.	4eee'	.	V43
8B'J	.	.	.	8dd'J	.	.	.	.
(16BLL	.	8.r	.	(16ddLL	.	4eee'	.	.
16cJ	.	.	.	16eeJ	.	.	.	.
8BJ)	.	.	.	8ddJ)	.	.	.	.
.	.	16e	.	.	.	.	.	.
=217	=217	=217	=217	=217	=217	=217	=217	=217
(4B	.	(4a'	.	(4dd	.	(4.eee	.	i
4A)	.	4a')	.	4cc)	.	.	.	.
.	.	.	.	.	.	16dddLL	.	.
.	.	.	.	.	.	16cccJJ)	.	.
2r	.	8aL	.	8eeL	.	8ccc'L	.	.
.	.	8a	.	8ee	.	8ccc'J	.	.
.	.	8a	.	8ee	.	(16cccLL	.	.
.	.	.	.	.	.	16dddJ	.	.
.	.	8aJ	.	8eeJ	.	8cccJ)	.	.
=218	=218	=218	=218	=218	=218	=218	=218	=218
4r	.	(8aL	.	(8dd#XL	.	(8cccL	.	#viio43/V
.	.	8g#XJ)	.	8eeJ)	.	8bbJ)	.	V6
8r	.	(16aLL	.	(16ccLL	.	4r	.	i
.	.	16bJ	.	16dd#J	.	.	.	.
8d#X'	.	8aJ)	.	8ccJ)	.	.	.	.
(8d#L	.	(8aL	.	(8ccL	.	4r	.	V
8eJ)	.	8g#J)	.	8bJ)	.	.	.	.
4r	.	8r	.	8r	.	(16cccLL	.	.
.	.	.	.	.	.	16dddJ	.	.
.	.	8a	.	8dd#	.	8cccJ)	.	#viio43/V
=219	=219	=219	=219	=219	=219	=219	=219	=219
!	!	!LO:TX:b:i:t=cresc.	!	!LO:TX:b:i:t=cresc.	!	!LO:TX:a:i:t=cresc.	!	!
2r	.	(8.aL	.	(8.dd#XL	.	(8.cccL	.	#viio43/V
.	.	16g#XJk)	.	16eeJk)	.	16bbJk)	.	V6
.	.	8g#'L	.	8ee'L	.	8bb'L	.	.
.	.	8a'J	.	8dd#'J	.	8ccc'J	.	#viio43/V
4r	.	(8.aL	.	(8.dd#L	.	(8.cccL	.	.
.	.	16g#Jk)	.	16eeJk)	.	16bbJk)	.	V6
8r	.	8g#'L	.	8ee'L	.	8bb'L	.	.
!LO:TX:b:i:t=cresc.	!	!	!	!	!	!	!	!
8gn	.	8b-X'J	.	8ee'J	.	8ccc'J	.	III43
=220	=220	=220	=220	=220	=220	=220	=220	=220
(8.gL	.	(8.b-XL	.	(8.eeL	.	(8.ccc#XL	.	#viio43/iv
16fK)	.	16aJk)	.	16ffJk)	.	16dddJk)	.	iv6
8f'	.	8a'L	.	8ff'L	.	8ddd'L	.	.
8g'J	.	8b-'J	.	8ee'J	.	8ccc#'J	.	#viio43/iv
(8.gL	.	(8.b-L	.	(8.eeL	.	(8.ccc#L	.	.
16fK)	.	16aJk)	.	16ffJk)	.	16dddJk)	.	iv6
8f'	.	8a'L	.	8ff'L	.	8ddd'L	.	.
8f'J	.	8a'J	.	8cc'J	.	8ddd#X'J	.	#ivo6
=221	=221	=221	=221	=221	=221	=221	=221	=221
(8.fL	.	(8.aL	.	(8.ccL	.	(8.ddd#XL	.	.
16eJk)	.	16g#XJk)	.	16eJk)	.	16eeeJk)	.	V
(8.c#XL	.	(8.gnL	.	(8.b-XL	.	(8.eeeL	.	#iio7
16dJk)	.	16fJk)	.	16aJk)	.	16fffJk)	.	V/III
*clefF4	*	*	*	*	*	*	*	*
(8.dL	.	(8.fL	.	(8.aL	.	(8.fffL	.	.
16cnJk)	.	16e-XJk)	.	16ee-XJk)	.	16fff#XJk)	.	#viio43/VII
(8.cL	.	(8.e-L	.	(8.aL	.	(8.fff#L	.	.
16BJk)	.	16dJk)	.	16ddnJk)	.	16gggJk)	.	V6/III
=222	=222	=222	=222	=222	=222	=222	=222	=222
(8.FL	.	(8.BnL	.	(8.ddL	.	(8.gggL	.	V2/III
16EJk)	.	16dJk)	.	16bnJk)	.	16ggg#XJk)	.	V7
(8.EL	.	(8.BL	.	(8.dL	.	(8.ggg#L	.	.
16D#XJk)	.	16AJk)	.	16ccJk)	.	16aaaJk)	.	#viio7/V
(8.FL	f	(8.cL	f	(8.aL	f	(8.aaaL	f	VI
16EJk)	.	16aJk)	.	16ccJk)	.	16aaJk)	.	i64
(8E'L	>	(8.AL	>	(8.cL	>	(8.cccL	>	.
8E'J)	]]	.	.	.	.	.	.	.
.	.	16G#XJk)	]]	16dJk) 16e	]]	16bbJk)	]]	V7\\
=223	=223	=223	=223	=223	=223	=223	=223	=223
1r	.	1r	.	12r	.	4r	.	.
!	!	!	!	!LO:TX:b:t=p non legato	!	!	!	!
.	.	.	.	12BL	.	.	.	.
.	.	.	.	12AJ	.	.	.	.
.	.	.	.	[4e	.	12r	.	I.I64
!	!	!	!	!	!	!LO:TX:b:t=p  non legato	!	!
.	.	.	.	.	.	12f#XL	.	.
.	.	.	.	.	.	12eJ	.	.
.	.	.	.	4e_	.	12aL	.	.
.	.	.	.	.	.	12b	.	.
.	.	.	.	.	.	12aJ	.	.
.	.	.	.	12eL]	.	4cc#X	.	.
.	.	.	.	12B	.	.	.	.
.	.	.	.	12AJ	.	.	.	.
=224	=224	=224	=224	=224	=224	=224	=224	=224
!	!	!LO:TX:a:t=p  dolce	!	!	!	!	!	!
2r	.	(4..dd	.	12eL	.	2r	.	V7
.	.	.	.	12A	.	.	.	.
.	.	.	.	12G#XJ	.	.	.	.
.	.	.	.	4e	.	.	.	.
.	.	16cc#X)	.	.	.	.	.	.
(2E	p	(4b'	.	12r	.	8r	.	.
.	.	.	.	12AL	.	.	.	.
.	.	.	.	.	.	8BL	.	.
.	.	.	.	12G#J	.	.	.	.
.	.	4b')	.	4g#X	.	8c#X	.	.
.	.	.	.	.	.	8dJ	.	.
=225	=225	=225	=225	=225	=225	=225	=225	=225
2AA	.	(4dd	.	12r	.	(4d	.	I(4)
.	.	.	.	12BL	.	.	.	.
.	.	.	.	12AJ	.	.	.	.
.	.	8cc#XL	.	4e	.	8c#XL	.	I
.	.	8bJ	.	.	.	8BJ	.	.
4F#X	.	4a	.	12r	.	4A	.	vi
.	.	.	.	12BL	.	.	.	.
.	.	.	.	12AJ	.	.	.	.
8G#XL	.	8bL	.	4e	.	8BL	.	V6
8AJ)	.	8cc#J)	.	.	.	8c#J)	.	.
=226	=226	=226	=226	=226	=226	=226	=226	=226
(4G#X	.	(4.b	.	12r	.	(4.B	.	V64
.	.	.	.	12f#XL	.	.	.	.
.	.	.	.	12eJ	.	.	.	.
2BB	.	.	.	4ee	.	.	.	.
.	.	8g#X)	.	.	.	8gg#X)	.	.
.	.	(4.a	.	12r	.	(4.aa	.	V7/V
.	.	.	.	12eeL	.	.	.	.
.	.	.	.	12dd#XJ	.	.	.	.
4B)	.	.	.	12ff#XL	.	.	.	.
.	.	.	.	12dd#	.	.	.	.
.	.	8d#X)	.	.	.	8dd#X)	.	.
.	.	.	.	12aJ	.	.	.	.
=227	=227	=227	=227	=227	=227	=227	=227	=227
4E	.	4e	.	12g#XL	.	8r	.	V\\
.	.	.	.	12e	.	.	.	.
.	.	.	.	.	.	(8eL	.	V
.	.	.	.	12d#XJ	.	.	.	.
4r	.	4r	.	12c#XL	.	8g#X	.	.
.	.	.	.	12B	.	.	.	.
.	.	.	.	.	.	8bJ	.	.
.	.	.	.	12AJ	.	.	.	.
*clefC4	*	*	*	*	*	*	*	*
(8d#XL	.	12r	.	4G#X	.	8dd#XL	.	.
.	.	12AL	.	.	.	.	.	.
8eJ)	.	.	.	.	.	8ee)	.	.
.	.	12G#XJ	.	.	.	.	.	.
(8eL	.	12F#XL	.	4r	.	(8ee	.	.
.	.	12E	.	.	.	.	.	.
8f#XJ)	.	.	.	.	.	8ff#XJ)	.	.
.	.	12DnJ	.	.	.	.	.	.
=228	=228	=228	=228	=228	=228	=228	=228	=228
(4..gn	<	4C#X	<	12r	<	(4..ggn	<	V65/iv
.	.	.	.	12BL	.	.	.	.
.	.	.	.	12AJ	.	.	.	.
.	.	12r	.	4a	.	.	.	.
.	.	12BL	.	.	.	.	.	.
.	.	12AJ	.	.	.	.	.	.
16f#X)	.	.	.	.	.	16ff#X)	.	.
!LO:TX:b:i:t=piu cresc.	!	!	!	!	!	!	!	!
!LO:TX:a:i:t=piu cresc.	!	!LO:TX:a:i:t=piu cresc.	!	!	!	!LO:TX:b:i:t=piu cresc.	!	!
(4e#X'	[	4C#	[	12r	[	(4ee#X'	[	I+6
.	.	.	.	12BL	.	.	.	.
.	.	.	.	12AJ	.	.	.	.
4e#')	.	12r	.	4a	.	4ee#')	.	.
.	.	12BL	.	.	.	.	.	.
.	.	12AJ	.	.	.	.	.	.
=229	=229	=229	=229	=229	=229	=229	=229	=229
!LO:TX:b:i:t=dim.	!	!LO:TX:b:i:t=dim.	!	!	!	!LO:TX:b:i:t=dim.	!	!
(4g	.	4D	.	12r	.	(4gg	.	V64/III
!	!	!	!	!LO:TX:b:i:t=dim.	!	!	!	!
.	.	.	.	12BL	.	.	.	.
.	.	.	.	12AJ	.	.	.	.
8f#XL	.	12r	.	4a	.	8ff#XL	.	.
.	.	12BL	.	.	.	.	.	.
8enJ	.	.	.	.	.	8eenJ	.	.
.	.	12AJ	.	.	.	.	.	.
4dn	.	4f#X	.	12r	.	4ddn	.	IV
.	.	.	.	12BL	.	.	.	.
.	.	.	.	12AJ	.	.	.	.
8eL	.	12r	.	4a	.	8eeL	.	.
.	.	12BL	.	.	.	.	.	.
8f#J)	.	.	.	.	.	8ff#J)	.	.
.	.	12AJ	.	.	.	.	.	.
=230	=230	=230	=230	=230	=230	=230	=230	=230
!LO:TX:b:i:t=teneramente	!	!	!	!	!	!LO:TX:b:i:t=teneramente	!	!
(4.e	.	4E 4c#X	p	12r	.	(4.ee	.	V6
.	.	.	.	12BL	p	.	.	.
.	.	.	.	12AJ	.	.	.	.
.	.	12r	.	4e	.	.	.	.
.	.	12BL	.	.	.	.	.	.
8c#X)	.	.	.	.	.	8cc#X)	.	.
.	.	12AJ	.	.	.	.	.	.
(4.d	.	4E	.	12r	.	(4.dd	.	V7
.	.	.	.	12AL	.	.	.	.
.	.	.	.	12G#XJ	.	.	.	.
.	.	12r	.	4e	.	.	.	.
.	.	12c#L	.	.	.	.	.	.
8G#X)	.	.	.	.	.	8g#X)	.	.
.	.	12BJ	.	.	.	.	.	.
=231	=231	=231	=231	=231	=231	=231	=231	=231
(4.e	.	4E	.	12r	.	(4.ee	.	i
.	.	.	.	12BL	.	.	.	.
.	.	.	.	12AJ	.	.	.	.
.	.	12r	.	4e	.	.	.	.
.	.	12BL	.	.	.	.	.	.
8cn)	.	.	.	.	.	8ccn)	.	.
.	.	12AJ	.	.	.	.	.	.
(4.d	.	4E	.	12r	.	(4dd	.	V7
.	.	.	.	12AL	.	.	.	.
.	.	.	.	12G#XJ	.	.	.	.
.	.	12r	.	4e	.	8dddL	.	.
.	.	12cnL	.	.	.	.	.	.
8e)	.	.	.	.	.	8gg#XJ)	.	.
.	.	12BJ	.	.	.	.	.	.
=232	=232	=232	=232	=232	=232	=232	=232	=232
1fn	pp	4Fn	pp	4r	.	(4bb	pp	.Ger6
.	.	4r	.	8r	.	8.aaL	.	.
.	.	.	.	(16dd#XLL	pp	.	.	.
.	.	.	.	16aJJ	.	16bbJk	.	.
.	.	2r	.	16dd#LL	.	4ccc	.	.
.	.	.	.	16a	.	.	.	.
.	.	.	.	16dd#	.	.	.	.
.	.	.	.	16aJJ	.	.	.	.
.	.	.	.	16dd#LL	.	8.bbL	.	.
.	.	.	.	16a	.	.	.	.
.	.	.	.	16dd#	.	.	.	.
.	.	.	.	16aJJ)	.	16aaJk)	.	.
=233	=233	=233	=233	=233	=233	=233	=233	=233
1r	.	1E	.	4r	.	(4aa	.	V(4)
.	.	.	.	8r	.	2gg#X	.	V
.	.	.	.	(16BLL	.	.	.	.
.	.	.	.	16G#XJJ	.	.	.	.
.	.	.	.	16BLL	.	.	.	.
.	.	.	.	16G#	.	.	.	.
.	.	.	.	16B	.	.	.	.
.	.	.	.	16G#JJ	.	.	.	.
.	.	.	.	16BLL	.	8.ffnL	.	.
.	.	.	.	16G#	.	.	.	.
.	.	.	.	16B	.	.	.	.
.	.	.	.	16G#JJ)	.	16eeJk)	.	.
=234	=234	=234	=234	=234	=234	=234	=234	=234
1r	.	4r	.	1g#X	.	(4ee	.	V65
.	.	8r	.	.	.	8.bbL	.	.
.	.	(16BLL	.	.	.	.	.	.
.	.	16G#XJJ	.	.	.	16cccJk	.	.
.	.	16BLL	.	.	.	4ddd	.	.
.	.	16G#	.	.	.	.	.	.
.	.	16B	.	.	.	.	.	.
.	.	16G#JJ	.	.	.	.	.	.
.	.	16BLL	.	.	.	8.cccL	.	.
.	.	16G#	.	.	.	.	.	.
.	.	16B	.	.	.	.	.	.
.	.	16G#JJ)	.	.	.	16bbJk)	.	.
=235	=235	=235	=235	=235	=235	=235	=235	=235
!LO:TX:b:i:t=cresc.	!	!	!	!	!	!LO:TX:b:i:t=cresc.	!	!
1AA	.	4r	.	4r	.	(4ddd	.	i(4)
.	.	8r	.	8r	.	8.cccL	.	i
!	!	!LO:TX:b:i:t=cresc.	!	!LO:TX:b:i:t=cresc.	!	!	!	!
.	.	(16eLL	.	(16ccLL	.	.	.	.
.	.	16cJJ	.	16aJJ	.	16dddJk	.	.
.	.	16eLL	.	16ccLL	.	4eee	.	.
.	.	16c	.	16a	.	.	.	.
.	.	16e	.	16cc	.	.	.	.
.	.	16cJJ	.	16aJJ	.	.	.	.
.	.	16eLL	.	16ccLL	.	8.dddL	.	.
.	.	16c	.	16a	.	.	.	.
.	.	16e	.	16cc	.	.	.	.
.	.	16cJJ)	.	16aJJ)	.	16cccJk)	.	.
=236	=236	=236	=236	=236	=236	=236	=236	=236
8FF'L	f	(16aLL	f	(16ccLL	f	(8.bbL	f	VI
.	.	16A	.	16c	.	.	.	.
(8F	.	16c	.	16a	.	.	.	.
.	.	16AJJ)	.	16cJJ)	.	16gg#XJk)	.	.
8E	.	(16cLL	.	(16aLL	.	(16aaLL	.	.
.	.	16A	.	16c	.	16bb	.	.
8FJ	.	16c	.	16a	.	16aa	.	.
.	.	16AJJ)	.	16cJJ)	.	16bbJJ)	.	.
8EL	.	(16cLL	.	(16aLL	.	8ccc'L	.	.
.	.	16A	.	16c	.	.	.	.
8F)	.	16c	.	16a	.	8ccc'J	.	.
.	.	16AJJ	.	16cJJ	.	.	.	.
8f'	.	16cLL	.	16aLL	.	(16bbLL	.	.
.	.	16A	.	16c	.	16aa	.	.
8F'J	.	16c	.	16a	.	16bb	.	.
.	.	16AJJ)	.	16cJJ)	.	16aaJJ)	.	.
=237	=237	=237	=237	=237	=237	=237	=237	=237
8EE'L	.	(16cLL	.	(16aLL	.	(4aa	.	V(64)
.	.	16A	.	16c	.	.	.	.
(8E	.	16c	.	16a	.	.	.	.
.	.	16AJJ)	.	16cJJ)	.	.	.	.
8D#X	.	(16g#XLL	.	(16bLL	.	2gg#X)	.	V
.	.	16B	.	16g#X	.	.	.	.
8EJ	.	16g#	.	16b	.	.	.	.
.	.	16BJJ	.	16g#JJ	.	.	.	.
8D#L	.	16g#LL	.	16bLL	.	.	.	.
.	.	16B	.	16g#	.	.	.	.
8E)	.	16g#	.	16b	.	.	.	.
.	.	16BJJ	.	16g#JJ	.	.	.	.
8e'J	.	16g#LL	.	16bLL	.	(16ffLL	.	.
.	.	16B	.	16g#	.	16dd#X	.	.
8r	.	16g#	.	16b	.	16ff	.	.
.	.	16BJJ)	.	16g#JJ)	.	16eeJJ)	.	.
=238	=238	=238	=238	=238	=238	=238	=238	=238
8EE'L	.	(16g#XLL	.	(16bLL	.	8ee'L	.	.
.	.	16B	.	16g#X	.	.	.	.
(8E	.	16g#	.	16b	.	8ee'J	.	.
.	.	16BJJ	.	16g#JJ	.	.	.	.
8D#X	.	16g#LL	.	16bLL	.	(16ffLL	.	.
.	.	16B	.	16g#	.	16dd#X	.	.
8EJ	.	16g#	.	16b	.	16ff	.	.
.	.	16BJJ)	.	16g#JJ)	.	16eeJJ)	.	.
8D#L	.	(16g#LL	.	(16bLL	.	8ee'L	.	.
.	.	16B	.	16g#	.	.	.	.
8E)	.	16g#	.	16b	.	8ee'J	.	.
.	.	16BJJ	.	16g#JJ	.	.	.	.
8e'	.	16g#LL	.	16bLL	.	(16dddnLL	.	V7
.	.	16B	.	16g#	.	16ee	.	.
8E'J	sf	16g#	.	16b	.	16ddd	.	.
.	.	16BJJ)	.	16g#JJ)	.	16bbJJ)	.	.
=239	=239	=239	=239	=239	=239	=239	=239	=239
8AA'L	.	(16aLL	sf	(16ccLL	sf	(4ddd	sf	i(11)
.	.	16c	.	16e	.	.	.	.
(8A	.	16a	.	16cc	.	.	.	.
.	.	16cJJ	.	16eJJ	.	.	.	.
8G#X	.	16aLL	.	16ccLL	.	2ccc)	.	i
.	.	16c	.	16e	.	.	.	.
8AJ	.	16a	.	16cc	.	.	.	.
.	.	16cJJ	.	16eJJ	.	.	.	.
8G#L	.	16aLL	.	16ccLL	.	.	.	.
.	.	16c	.	16e	.	.	.	.
8A)	.	16a	.	16cc	.	.	.	.
.	.	16cJJ)	.	16eJJ)	.	.	.	.
8e'	.	(16g#XLL	.	(16bLL	.	(16dddLL	.	.
.	.	16B	.	16g#X	.	16ee	.	.
8E'J	.	16g#	.	16b	.	16ddd	.	V7
.	.	16dJJ)	.	16g#JJ)	.	16bbJJ)	.	.
=240	=240	=240	=240	=240	=240	=240	=240	=240
!	!LO:DY:a	!	!	!	!	!	!	!
8AA'L	sf sf	(16eLL	.	(16ccLL	sf	(4ddd	sf	i(11)
.	.	16c	.	16e	.	.	.	.
(8A	.	16e	.	16cc	.	.	.	.
.	.	16cJJ	.	16eJJ	.	.	.	.
8G#X	.	16eLL	.	16ccLL	.	[4ccc)	.	i
.	.	16c	.	16e	.	.	.	.
8AJ	.	16e	.	16cc	.	.	.	.
.	.	16cJJ	.	16eJJ	.	.	.	.
8G#L	.	16eLL	.	16ccLL	.	(8cccL]	.	.
.	.	16c	.	16e	.	.	.	.
8A)	.	16e	.	16cc	.	8eeJ)	.	.
.	.	16cJJ)	.	16eJJ)	.	.	.	.
8e'	.	(16g#XLL	.	(16bLL	.	(16eeeLL	.	V7
.	.	16B	.	16g#X	.	16ddd#X	.	.
8E'J	.	16g#	.	16b	.	16dddn	.	.
.	.	16dJJ)	.	16g#JJ)	.	16bbJJ)	.	.
=241	=241	=241	=241	=241	=241	=241	=241	=241
8FF'L	sf	2F 2A	.	2a	.	(4..ddd	sf	iv6
(8F	.	.	.	.	.	.	.	.
8E	.	.	.	.	.	.	.	.
8FJ)	.	.	.	.	.	.	.	.
.	.	.	.	.	.	16ccc)	.	.
8f'L	sf	(16fLL	sf	2r	.	(4..bb	sf	VI(4)
.	.	16F	.	.	.	.	.	.
(8F	.	16f	.	.	.	.	.	.
.	.	16F	.	.	.	.	.	.
8E	.	16f	.	.	.	.	.	.
.	.	16F	.	.	.	.	.	.
8FJ)	.	16f	.	.	.	.	.	.
.	.	16FJJ)	.	.	.	16aa)	.	VI
=242	=242	=242	=242	=242	=242	=242	=242	=242
8DD'L	sf	2r	sf	(16ffLL	.	(4..ccc	sf	iv7
.	.	.	.	16f	.	.	.	.
(8D	.	.	.	16ff	.	.	.	.
.	.	.	.	16fJJ	.	.	.	.
8C#X	.	.	.	16ffLL	.	.	.	.
.	.	.	.	16f	.	.	.	.
8DJ)	.	.	.	16ff	.	.	.	.
.	.	.	.	16fJJ)	.	16bb)	.	.
8e'L	sf	(16eLL	sf >	2r	.	(4..aa	sf >	V(4)
.	.	16E	.	.	.	.	.	.
(8E	>	16e	.	.	.	.	.	.
.	.	16EJJ	.	.	.	.	.	.
8D#X	.	16eLL	.	.	.	.	.	.
.	.	16E	.	.	.	.	.	.
8EJ)	]]	16e	.	.	.	.	.	.
.	.	16EJJ)	]]	.	.	16gg#X)	]]	V
=243	=243	=243	=243	=243	=243	=243	=243	=243
8CC#X'L	p	(16GnLL	p	(16B-XLL	p	(4..ggn	p	#viio7/iv
.	.	16E	.	16Gn	.	.	.	.
(8C#X	.	16G	.	16A	.	.	.	.
.	.	16EJJ	.	16GJJ	.	.	.	.
8AA	.	16GLL	.	16ALL	.	.	.	.
.	.	16E	.	16G	.	.	.	.
8C#J)	.	16G	.	16A	.	.	.	.
.	.	16EJJ)	.	16GJJ)	.	16ee)	.	.
!LO:TX:b:i:t=cresc.	!	!LO:TX:b:i:t=cresc.	!	!LO:TX:b:i:t=cresc.	!	!LO:TX:b:i:t=cresc.	!	!
8d'L	.	(16ALL	.	(16fLL	.	(4..ff	.	iv
.	.	16F	.	16A	.	.	.	.
(8D	.	16A	.	16f	.	.	.	.
.	.	16FJJ	.	16AJJ	.	.	.	.
8C#	.	16ALL	.	16fLL	.	.	.	.
.	.	16F	.	16A	.	.	.	.
8DJ)	.	16A	.	16f	.	.	.	.
.	.	16FJJ)	.	16AJJ)	.	16dd)	.	.
=244	=244	=244	=244	=244	=244	=244	=244	=244
8EE'L	.	(16cLL	.	(16aLL	.	(4..cc	.	V(64)
.	.	16A	.	16c	.	.	.	.
(8E	.	16c	.	16a	.	.	.	.
.	.	16AJJ	.	16cJJ	.	.	.	.
8D#X	.	16cLL	.	16aLL	.	.	.	.
.	.	16A	.	16c	.	.	.	.
8EJ)	.	16c	.	16a	.	.	.	.
.	.	16AJJ)	.	16cJJ)	.	16ee)	.	.
8e'L	.	(16BLL	.	(16g#XLL	.	(4..b	.	V
.	.	16G#X	.	16Bn	.	.	.	.
(8E	.	16B	.	16g#	.	.	.	.
.	.	16G#JJ	.	16BJJ	.	.	.	.
8D#	.	16BLL	.	16g#LL	.	.	.	.
.	.	16G#	.	16B	.	.	.	.
8EJ)	.	16B	.	16g#	.	.	.	.
.	.	16G#JJ)	.	16BJJ)	.	16ee)	.	.
=245	=245	=245	=245	=245	=245	=245	=245	=245
8CC#X'L	f	(16GnLL	f	(16B-XLL	f	(4..b-X	f	#viio7/iv
.	.	16E	.	16Gn	.	.	.	.
(8C#X	.	16G	.	16A	.	.	.	.
.	.	16EJJ	.	16GJJ	.	.	.	.
8AA	.	16GLL	.	16ALL	.	.	.	.
.	.	16E	.	16G	.	.	.	.
8C#J)	.	16G	.	16A	.	.	.	.
.	.	16EJJ)	.	16GJJ)	.	16gg)	.	.
!LO:TX:b:i:t=piu f	!	!LO:TX:b:i:t=piu f	!	!LO:TX:b:i:t=piu f	!	!LO:TX:b:i:t=piu f	!	!
8d'L	.	(16ALL	.	(16fLL	.	(4..d	.	iv
.	.	16F	.	16A	.	.	.	.
(8D	.	16A	.	16f	.	.	.	.
.	.	16FJJ	.	16AJJ	.	.	.	.
8C#	.	16ALL	.	16fLL	.	.	.	.
.	.	16F	.	16A	.	.	.	.
8DJ)	.	16A	.	16f	.	.	.	.
.	.	16FJJ)	.	16AJJ)	.	16ff)	.	.
=246	=246	=246	=246	=246	=246	=246	=246	=246
8EE'L	.	(16cLL	.	(16aLL	.	(4..cc	.	V(64)
.	.	16A	.	16c	.	.	.	.
(8E	.	16c	.	16a	.	.	.	.
.	.	16AJJ)	.	16cJJ)	.	.	.	.
8D#X	.	(16aLL	.	(16ccLL	.	.	.	.
.	.	16c	.	16a	.	.	.	.
8EJ)	.	16a	.	16cc	.	.	.	.
.	.	16cJJ)	.	16aJJ)	.	16eee)	.	.
8e'L	.	(16aLL	.	(16ccLL	.	(4..ggg	.	V
.	.	16c	.	16a	.	.	.	.
(8E	.	16a	.	16cc	.	.	.	.
.	.	16cJJ)	.	16aJJ)	.	.	.	.
8D#	.	(16g#XLL	.	(16bnLL	.	.	.	.
.	.	16B	.	16g#X	.	.	.	.
8EJ)	.	16g#	.	16b	.	.	.	.
.	.	16BJJ)	.	16g#JJ)	.	16fff)	.	.
=247	=247	=247	=247	=247	=247	=247	=247	=247
4r	.	4r	.	1ff	ff	1fff	ff	VI64
(8.aL	ff	(8.ccL	ff	.	.	.	.	.
16bJk	.	16ddJk	.	.	.	.	.	.
4cc	.	4ee	.	.	.	.	.	.
8.bL	.	8.ddL	.	.	.	.	.	.
16aJk)	.	16ccJk)	.	.	.	.	.	.
=248	=248	=248	=248	=248	=248	=248	=248	=248
(4a	>	(4cc	>	[1ee	>]	[1eee	>]	i
8.g#XL	.	8.bL	.	.	.	.	.	.
16aJk	.	16ccJk	.	.	.	.	.	.
4b	.	4dd	.	.	.	.	.	.
8.aL	.	8.ccL	.	.	.	.	.	.
16gnJk)	]]	16bJk)	]]	.	.	.	.	.
=249	=249	=249	=249	=249	=249	=249	=249	=249
[1f	p	[1a	p	(2.ee]	p	8eeeL]	.	.Ger6
.	.	.	.	.	.	(8gg#X	p	.
.	.	.	.	.	.	8aa	.	.
.	.	.	.	.	.	8bbJ	.	.
.	.	.	.	.	.	12dddL	.	.
.	.	.	.	.	.	12ccc	.	.
.	.	.	.	.	.	12bbJ)	.	.
.	.	.	.	[4dd#X)	.	(12bbL	.	.
.	.	.	.	.	.	12ccc	.	.
.	.	.	.	.	.	12aaJ)	.	.
=250	=250	=250	=250	=250	=250	=250	=250	=250
(4f]	.	(4a]	.	(4dd#]	.	(4aa	.	.
2e)	.	2b	.	[2.ee)	.	2gg#X	.	V
*clefF4	*	*	*	*	*	*	*	*
[4c#X	.	[4b-X)	.	.	.	[4ggn)	.	#viio7/iv
=251	=251	=251	=251	=251	=251	=251	=251	=251
!LO:TX:b:i:t=morendo	!	!LO:TX:a:i:t=morendo	!	!LO:TX:a:i:t=morendo	!	!LO:TX:a:i:t=morendo	!	!
(4c#]	.	(4b-]	.	(4ee]	.	(4gg]	.	.
2d	.	2a	.	[2.ddn)	.	2ff#X	.	IV
[4B)	.	[4a-X)	.	.	.	[4ffn)	.	viio7/III
=252	=252	=252	=252	=252	=252	=252	=252	=252
(8B]	pp	(8a-]	pp	(8dd]	pp	(8ff]	pp	.
4.cn)	.	[4.g)	.	[4.cc)	.	[4.ee)	.	III
!LO:TX:b:i:t=sempre pp	!	!LO:TX:a:i:t=sempre pp	!	!LO:TX:a:i:t=sempre pp	!	!LO:TX:a:i:t=sempre pp	!	!
(8C	.	(8g]	.	(8cc]	.	(8ee]	.	.
4.D)	.	[4.f)	.	[4.b)	.	[4.dd)	.	iio6
=253	=253	=253	=253	=253	=253	=253	=253	=253
(8DD	.	(8f]	.	(8b]	.	(8dd]	.	.
[4.EE)	.	[4.e)	.	[4.a)	.	[4.cc)	.	V(64)
2EE]	.	8e]	.	8a]	.	8cc]	.	.
.	.	4.d	.	4.g#X	.	4.b	.	V
=254	=254	=254	=254	=254	=254	=254	=254	=254
!LO:TX:b:i:t=sempre pp	!	!LO:TX:b:i:t=sempre pp	!	!	!	!LO:TX:b:i:t=sempre pp	!	!
(16DD#XLL	.	(16FLL	.	1r	.	1G#X	.	V
16EE	.	16E	.	.	.	.	.	.
16DD#	.	16F	.	.	.	.	.	.
16EEJJ	.	16EJJ	.	.	.	.	.	.
16DD#LL	.	16FLL	.	.	.	.	.	.
16EE	.	16E	.	.	.	.	.	.
16DD#	.	16F	.	.	.	.	.	.
16EEJJ	.	16EJJ	.	.	.	.	.	.
16DD#LL	.	16FLL	.	.	.	.	.	.
16EE	.	16E	.	.	.	.	.	.
16DD#	.	16F	.	.	.	.	.	.
16EEJJ	.	16EJJ	.	.	.	.	.	.
16DD#LL	.	16FLL	.	.	.	.	.	.
16EE	.	16E	.	.	.	.	.	.
16DD#	.	16F	.	.	.	.	.	.
16EEJJ)	.	16EJJ)	.	.	.	.	.	.
=255	=255	=255	=255	=255	=255	=255	=255	=255
(16DD#XLL	.	(16FLL	.	1g#X	pp	1bb	.	.
16EE	.	16E	.	.	.	.	.	.
16DD#	.	16F	.	.	.	.	.	.
16EEJJ	.	16EJJ	.	.	.	.	.	.
16DD#LL	.	16FLL	.	.	.	.	.	.
16EE	.	16E	.	.	.	.	.	.
16DD#	.	16F	.	.	.	.	.	.
16EEJJ	.	16EJJ	.	.	.	.	.	.
16DD#LL	.	16FLL	.	.	.	.	.	.
16EE	.	16E	.	.	.	.	.	.
16DD#	.	16F	.	.	.	.	.	.
16EEJJ	.	16EJJ	.	.	.	.	.	.
16DD#LL	.	16FLL	.	.	.	.	.	.
16EE	.	16E	.	.	.	.	.	.
16DD#	.	16F	.	.	.	.	.	.
16EEJJ)	.	16EJJ)	.	.	.	.	.	.
=256	=256	=256	=256	=256	=256	=256	=256	=256
(16DD#XLL	.	(16FLL	.	(16bLL	.	1ddd	.	V7
16EE	.	16E	.	16g#X	.	.	.	.
16DD#	.	16F	.	16b	.	.	.	.
16EEJJ	.	16EJJ	.	16g#JJ	.	.	.	.
16DD#LL	.	16FLL	.	16bLL	.	.	.	.
16EE	.	16E	.	16g#	.	.	.	.
16DD#	.	16F	.	16b	.	.	.	.
16EEJJ	.	16EJJ	.	16g#JJ	.	.	.	.
16DD#LL	.	16FLL	.	16bLL	.	.	.	.
16EE	.	16E	.	16g#	.	.	.	.
16DD#	.	16F	.	16b	.	.	.	.
16EEJJ	.	16EJJ	.	16g#JJ	.	.	.	.
16DD#LL	.	16FLL	.	16bLL	.	.	.	.
16EE	.	16E	.	16g#	.	.	.	.
16DD#	.	16F	.	16b	.	.	.	.
16EEJJ)	.	16EJJ)	.	16g#JJ)	.	.	.	.
=257	=257	=257	=257	=257	=257	=257	=257	=257
!LO:TX:b:i:t=cresc.	!	!LO:TX:b:i:t=cresc.	!	!LO:TX:b:i:t=cresc.	!	!LO:TX:b:i:t=cresc.	!	!
(16DD#XLL	.	(16g#XLL	.	1b 1gg#X	.	(16ffLL	.	V
16EE	.	16B	.	.	.	16ee	.	.
16DD#	.	16g#	.	.	.	16ff	.	.
16EEJJ	.	16BJJ	.	.	.	16eeJJ	.	.
16DD#LL	.	16g#LL	.	.	.	16ffLL	.	.
16EE	.	16B	.	.	.	16ee	.	.
16DD#	.	16g#	.	.	.	16ff	.	.
16EEJJ	.	16BJJ	.	.	.	16eeJJ	.	.
16DD#LL	.	16g#LL	.	.	.	16ffLL	.	.
16EE	.	16B	.	.	.	16ee	.	.
16DD#	.	16g#	.	.	.	16ff	.	.
16EEJJ	.	16BJJ	.	.	.	16eeJJ	.	.
16DD#LL	.	16g#LL	.	.	.	16ffLL	.	.
16EE	.	16B	.	.	.	16ee	.	.
16DD#	.	16g#	.	.	.	16ff	.	.
16EEJJ)	.	16BJJ)	.	.	.	16eeJJ)	.	.
=258	=258	=258	=258	=258	=258	=258	=258	=258
4AA'	f	4A'	f	4a' 4aa	f	(16bLL	f	i
.	.	.	.	.	.	16a	.	.
.	.	.	.	.	.	16cc	.	.
.	.	.	.	.	.	16aJJ)	.	.
4GGn'	.	4Gn' 4A	.	4a' 4aa	.	(16b-XLL	.	V2/iv
.	.	.	.	.	.	16a	.	.
.	.	.	.	.	.	16cc#X	.	.
.	.	.	.	.	.	16aJJ)	.	.
4FF#X'	.	4F#X' 4A	.	4a' 4aa	.	(16b-LL	.	IV6
.	.	.	.	.	.	16a	.	.
.	.	.	.	.	.	16dd	.	.
.	.	.	.	.	.	16aJJ)	.	.
4FFn'	.	4Fn' 4A	.	4a' 4aa	.	(16bnLL	.	iv6
.	.	.	.	.	.	16a	.	.
.	.	.	.	.	.	16dd	.	.
.	.	.	.	.	.	16aJJ)	.	.
=259	=259	=259	=259	=259	=259	=259	=259	=259
4EE'	.	4E' 4A	.	(8.aaL	.	(16bLL	.	V(64)
.	.	.	.	.	.	16a	.	.
.	.	.	.	.	.	16ee	.	.
.	.	.	.	16bbJk)	.	16aJJ)	.	.
4EE'	.	(2e	sf	2ccc	sf	(16bLL	.	.
.	.	.	.	.	.	16a	.	.
.	.	.	.	.	.	16aa	.	.
.	.	.	.	.	.	16aJJ)	.	.
4E'	.	.	.	.	.	(16ddLL	.	.
.	.	.	.	.	.	16ccn	.	.
.	.	.	.	.	.	16aa	.	.
.	.	.	.	.	.	16ccJJ)	.	.
4EE'	.	8g#X)	.	4bb	.	(16ccLL	.	V
.	.	.	.	.	.	16b	.	.
.	.	8r	.	.	.	16gg#X	.	.
.	.	.	.	.	.	16bJJ)	.	.
=260	=260	=260	=260	=260	=260	=260	=260	=260
4AA'	.	4A'	.	4a' 4aa	.	(16B-XLL	.	i\\
.	.	.	.	.	.	16A	.	.
.	.	.	.	.	.	16c#X	.	V/iv
.	.	.	.	.	.	16AJJ)	.	.
4GGn'	.	4Gn' 4A	.	4a' 4aa	.	(16B-LL	.	V2/iv
.	.	.	.	.	.	16A	.	.
.	.	.	.	.	.	16c#	.	.
.	.	.	.	.	.	16AJJ)	.	.
4FF#X'	.	4F#X' 4A	.	4a' 4aa	.	(16B-LL	.	IV6
.	.	.	.	.	.	16A	.	.
.	.	.	.	.	.	16d	.	.
.	.	.	.	.	.	16AJJ)	.	.
4FFn'	.	4Fn' 4A	.	4a' 4aa	.	(16BnLL	.	iv6
.	.	.	.	.	.	16A	.	.
.	.	.	.	.	.	16d	.	.
.	.	.	.	.	.	16AJJ)	.	.
=261	=261	=261	=261	=261	=261	=261	=261	=261
4EE'	.	4E' 4A	.	(8.aaL	.	(16BLL	.	V(64)
.	.	.	.	.	.	16A	.	.
.	.	.	.	.	.	16a	.	.
.	.	.	.	16bbJk)	.	16AJJ)	.	.
4EE'	.	(2e	sf	2ccc	sf	(16BLL	.	.
.	.	.	.	.	.	16A	.	.
.	.	.	.	.	.	16a	.	.
.	.	.	.	.	.	16AJJ)	.	.
4E'	.	.	.	.	.	(16dLL	.	.
.	.	.	.	.	.	16cn	.	.
.	.	.	.	.	.	16cc	.	.
.	.	.	.	.	.	16cJJ)	.	.
4e'	.	4g#X)	.	4bb	.	(16fLL	.	V
.	.	.	.	.	.	16e	.	.
.	.	.	.	.	.	16ee	.	.
.	.	.	.	.	.	16eJJ)	.	.
=262	=262	=262	=262	=262	=262	=262	=262	=262
4A'	.	4e' 4a	.	4cc' 4aa	.	16ee	.	i\\
.	.	.	.	.	.	16ee	.	.
.	.	.	.	.	.	16ee	.	.
.	.	.	.	.	.	16ee	.	.
4r	.	4r	.	4r	.	16ee	.	.
.	.	.	.	.	.	16ee	.	.
.	.	.	.	.	.	16ee	.	.
.	.	.	.	.	.	16ee	.	.
4E'	.	4g#X'	.	4b' 4bb	.	16ee	.	V
.	.	.	.	.	.	16ee	.	.
.	.	.	.	.	.	16ee	.	.
.	.	.	.	.	.	16ee	.	.
4r	.	4r	.	4r	.	16ee	.	.
.	.	.	.	.	.	16ee	.	.
.	.	.	.	.	.	(16gg#XLL	.	.
.	.	.	.	.	.	16eeJJ)	.	.
=263	=263	=263	=263	=263	=263	=263	=263	=263
4A'	.	4a'	.	4cc' 4ccc	.	16ee	.	i
.	.	.	.	.	.	16ee	.	.
.	.	.	.	.	.	16ee	.	.
.	.	.	.	.	.	16ee	.	.
4r	.	4r	.	4r	.	16ee	.	.
.	.	.	.	.	.	16ee	.	.
.	.	.	.	.	.	(16aaLL	.	.
.	.	.	.	.	.	16eeJJ)	.	.
4E'	.	4g#X' 4b	.	4eee'	.	16ee	.	V
.	.	.	.	.	.	16ee	.	.
.	.	.	.	.	.	16ee	.	.
.	.	.	.	.	.	16ee	.	.
4r	.	4r	.	4r	.	16ee	.	.
.	.	.	.	.	.	16ee	.	.
.	.	.	.	.	.	(16eeeLL	.	.
.	.	.	.	.	.	16gg#XJJ)	.	.
=264	=264	=264	=264	=264	=264	=264	=264	=264
4AA'	.	4A'	.	4c' 4e 4a	.	4e' 4cc 4aa	.	i\\
4r	.	4r	.	4r	.	4r	.	.
2r;	.	2r;	.	2r;	.	2r;	.	.
==	==	==	==	==	==	==	==	==
*-	*-	*-	*-	*-	*-	*-	*-	*-
!!!system-decoration: [(s1,s2,s3,s4)]
